!!!!SEGMENT: pl-cz--iii-695--001-005_volckmer-augustin--litaniae-lauretanae-d-miserere-nobis.krn
!!!cenid: 17xx:1127
!!!COM: Volckmer, Augustin
!!!COM-rismID: pe30020656
!!!CDT: 1755-~1820
!!!CNT:
!!!OPR: Litaniae Lauretanae D
!!!OTL: Miserere nobis
!!!OMV: 005
!!!PDT:
!!!AGN: Sacred; Mass
!!!YEC: Copyright 2022 Narodowy Instytut Fryderyka Chopina (https://polishscores.org)
!!!YEM: License CC-BY-4.0 (https://creativecommons.org/licenses/by/4.0)
!!!SMS-siglum: PL-CZ
!!!SMS-shelfmark: III-695
!!!SMS-shelfwork: 001-005 M
!!!SMS-variant:
!!!SMS-altvar:
!!!NIFC-rismSourceID: 300001387
!!!NIFC-rismChildID: 300001387
!!!NIFC-islandoraID: pl-cz:40519
!!!URL-pdf-islandora: https://repozytorium.nifc.pl/islandora/object/pl-cz%3A40519/datastream/PDF/view
!!!URL-scan: https://polish.musicsources.pl/pl/lokalizacje/galeria/rekopisy/6992/1 @EN{Scan on Polish Music Sources Website} @PL{Skany w portalu Dziedzictwo Muzyki Polskiej w otwartym dostępie}
!!!IIIF:
!!!ONB-nifc: UWAGA: części Litanii: Kyrie eleison, Virgo prudentissima, Regina angelorum, Agnus Dei, Miserere nobis
!!!AIN: 1 alto 1 bass 2 clars 1 clrno 1 cor 2 oboe 1 organ 1 soprn 1 tenor 1 timpa 1 viola 2 violn
!!!key: D
!!!OMD:
!!!OMD-mod: Alla breve. Moderato per espressivo
**kern	**fba	**dynam	**kern	**dynam	**kern	**dynam	**kern	**dynam	**kern	**text	**dynam	**kern	**text	**dynam	**kern	**text	**dynam	**kern	**text	**dynam	**kern	**dynam	**kern	**dynam	**kern	**dynam	**kern	**dynam	**kern	**dynam	**kern	**dynam	**kern	**dynam
*part15	*	*	*part14	*	*part13	*	*part12	*	*part11	*	*	*part10	*	*	*part9	*	*	*part8	*	*	*part7	*	*part6	*	*part5	*	*part4	*	*part3	*	*part2	*	*part1	*
*staff15	*	*	*staff14	*	*staff13	*	*staff12	*	*staff11	*	*	*staff10	*	*	*staff9	*	*	*staff8	*	*	*staff7	*	*staff6	*	*staff5	*	*staff4	*	*staff3	*	*staff2	*	*staff1	*
*I"Organo	*	*	*I"Viola.	*	*I"Violino Secundo.	*	*I"Violino Primo	*	*I"Basſo.	*	*	*I"Tenore.	*	*	*I"Alto.	*	*	*I"Canto	*	*	*I"Timpano.	*	*I"Clarino ê Corno Secundo	*	*I"Clarino ê Corno Primo	*	*I"Clarinetto Secundo in A.	*	*I"Clarinetto Primo in A.	*	*I"Oboe Secundo_	*	*I"Oboe Primo_	*
*I'org	*	*	*I'vla	*	*I'vl II	*	*I'vl I	*	*I'B	*	*	*I'T	*	*	*I'A	*	*	*I'S	*	*	*I'timp	*	*I'clno e cor 2	*	*I'clno e cor 1	*	*I'cl 2	*	*I'cl 1	*	*I'ob 2	*	*I'ob 1	*
*Iorgan	*	*	*Iviola	*	*Ivioln	*	*Ivioln	*	*Ibass	*	*	*Itenor	*	*	*Ialto	*	*	*Isoprn	*	*	*Itimpa	*	*Iclrno&Icor	*Iclrno&Icor	*Iclars	*	*Iclars	*	*Ioboe	*	*Ioboe	*	*	*
*ICklav	*	*	*ICstr	*	*ICstr	*	*ICstr	*	*ICvox	*	*	*ICvox	*	*	*ICvox	*	*	*ICvox	*	*	*ICidio	*	*ICbras	*	*ICbras	*	*ICww	*	*ICww	*	*ICww	*	*ICww	*
*IGcont	*	*	*	*	*	*	*	*	*IGcoro	*	*	*IGcoro	*	*	*IGcoro	*	*	*IGcoro	*	*	*	*	*	*	*	*	*	*	*	*	*	*	*	*
*	*	*	*mI"Viola	*	*mI"Violino II	*	*mI"Violino I	*	*mI"Basso	*	*	*mI"Tenore	*	*	*mI"Alto	*	*	*mI"Soprano	*	*	*mI"Timpani in D. A. 	*	*mI"Clarino e Corno II	*	*mI"Clarino e Corno I	*	*mI"Clarinetto II in A	*	*mI"Clarinetto I in A	*	*mI"Oboe II	*	*mI"Oboe I	*
*clefF4	*	*	*clefC3	*	*clefG2	*	*clefG2	*	*clefF4	*	*	*clefC4	*	*	*clefC3	*	*	*clefC1	*	*	*clefF4	*	*clefG2	*	*clefG2	*	*clefG2	*	*clefG2	*	*clefG2	*	*clefG2	*
*	*	*	*	*	*	*	*	*	*	*	*	*mclefGv2	*	*	*mclefG2	*	*	*mclefG2	*	*	*	*	*	*	*	*	*	*	*	*	*	*	*	*
*	*	*	*	*	*	*	*	*	*	*	*	*	*	*	*	*	*	*	*	*	*	*	*ITrd-1c-2	*	*ITrd-1c-2	*	*ITrd2c3	*	*ITrd2c3	*	*	*	*	*
*k[f#c#]	*	*	*k[f#c#]	*	*k[f#c#]	*	*k[f#c#]	*	*k[f#c#]	*	*	*k[f#c#]	*	*	*k[f#c#]	*	*	*k[f#c#]	*	*	*k[f#c#]	*	*k[f#c#]	*	*k[f#c#]	*	*k[f#c#]	*	*k[f#c#]	*	*k[f#c#]	*	*k[f#c#]	*
*D:	*	*	*D:	*	*D:	*	*D:	*	*D:	*	*	*D:	*	*	*D:	*	*	*D:	*	*	*D:	*	*D:	*	*D:	*	*D:	*	*D:	*	*D:	*	*D:	*
*M2/2	*	*	*M2/2	*	*M2/2	*	*M2/2	*	*M2/2	*	*	*M2/2	*	*	*M2/2	*	*	*M2/2	*	*	*M2/2	*	*M2/2	*	*M2/2	*	*M2/2	*	*M2/2	*	*M2/2	*	*M2/2	*
*met(c|)	*	*	*met(c|)	*	*met(c|)	*	*met(c|)	*	*met(c|)	*	*	*met(c|)	*	*	*met(c|)	*	*	*met(c|)	*	*	*met(c|)	*	*met(c|)	*	*met(c|)	*	*met(c|)	*	*met(c|)	*	*met(c|)	*	*met(c|)	*
*mmet(c|)	*	*	*mmet(c|)	*	*mmet(c|)	*	*mmet(c|)	*	*mmet(c|)	*	*	*mmet(c|)	*	*	*mmet(c|)	*	*	*mmet(c|)	*	*	*mmet(c|)	*	*mmet(c|)	*	*mmet(c|)	*	*mmet(c|)	*	*mmet(c|)	*	*mmet(c|)	*	*mmet(c|)	*
=1	=1	=1	=1	=1	=1	=1	=1	=1	=1	=1	=1	=1	=1	=1	=1	=1	=1	=1	=1	=1	=1	=1	=1	=1	=1	=1	=1	=1	=1	=1	=1	=1	=1	=1
!	!	!	!	!	!	!	!	!	!	!	!	!	!	!	!	!	!	!	!	!	!LO:TX:a:t=6:mod=	!	!	!	!	!	!	!	!	!	!	!	!	!
!	!	!	!	!	!	!LO:DY:b:t=piano	!LO:TX:t=P:problem:all\right	!LO:DY:b:t=piano	!	!	!	!	!	!	!	!	!	!	!	!	!LO:TX:a:B:t=Allabreve Mod. per expreſs.:mod=	!	!LO:TX:a:t=6:mod=	!	!LO:TX:a:t=6:mod=	!	!LO:TX:a:B:t=Allabreve Mod&colon; per expreſs&colon;:mod=	!	!LO:TX:a:t=6:mod=	!	!LO:TX:a:B:t=Allabreve moderato per expreſs&colon;:mod=	!	!LO:TX:a:t=6:mod=	!
!LO:TX:a:B:t=Allabr(eve) Mode&colon;:mod=	!	!	!LO:TX:B:a:t=Allabreve Moderato per expreſsivo:mod=	!	!LO:TX:a:B:t=Allab(reve) Mod&colon; per express.:mod=	!	!LO:TX:a:B:t=Allab(reve) Moderato per expressivo:mod=	!	!LO:TX:B:a:t=Allabreve Moderato per expreſs&colon;:mod=	!	!	!LO:TX:a:B:t=Allabr(eve) Moderato per expreſsivo:mod=	!	!	!LO:TX:a:B:t=Allabr(eve) Moderato per express.:mod=	!	!	!LO:TX:a:B:t=Allabreve Moderato per expreſs:mod=	!	!	!LO:TX:t=P:problem:brak znaków przykluczowych	!	!LO:TX:a:B:t=Allabrv&colon; Moderato per expreſs:mod=	!	!LO:TX:a:B:t=Allabr(eve) Moderato:mod=	!	!LO:TX:a:t=6:mod=	!	!LO:TX:b:B:t=Allabreve Moderato per expressivo:mod=	!	!LO:TX:a:t=6:mod=	!	!LO:TX:b:B:t=allabreve moderato per expreſsivo:mod=	!
2r	.	.	2r	.	(4a/	p	(4ff#\	p	2r	.	.	2r	.	.	2r	.	.	2r	.	.	00r	.	00r	.	00r	.	00r	.	00r	.	00r	.	00r	.
.	.	.	.	.	4g/)	.	4ee\)	.	.	.	.	.	.	.	.	.	.	.	.	.	.	.	.	.	.	.	.	.	.	.	.	.	.	.
!	!	!	!LO:TX:t=P:problem:all\right	!	!	!	!	!	!	!	!	!	!	!	!	!	!	!	!	!	!	!	!	!	!	!	!	!	!	!	!	!	!	!
!LO:TX:t=P:problem:all\right	!	!LO:MO:mod=p	!	!LO:DY:b:t=piano	!	!	!	!	!LO:TX:t=P:problem:all\right	!	!LO:DY:b:t=piano	!LO:TX:t=P:problem:all\right	!	!LO:DY:b:t=piano	!LO:TX:t=P:problem:all\right	!	!LO:DY:b:t=piano	!LO:TX:t=P:problem:all\right	!	!LO:DY:b:t=piano	!	!	!	!	!	!	!	!	!	!	!	!	!	!
8D\L	.	f	8a|\L	p	8f#|/L	.	8dd|\L	.	4D\	Mi-	p	4A\	mi-	p	4f#\	mi-	p	4dd\	mi-	p	.	.	.	.	.	.	.	.	.	.	.	.	.	.
8D\J	.	.	8a|\J	.	8f#|/J	.	8dd|\J	.	.	.	.	.	.	.	.	.	.	.	.	.	.	.	.	.	.	.	.	.	.	.	.	.	.	.
4D\	.	.	4a\	.	4f#/	.	4dd|\	.	4D\	-se-	.	4A\	-se-	.	4f#\	-se-	.	4dd\	-se-	.	.	.	.	.	.	.	.	.	.	.	.	.	.	.
=2	=2	=2	=2	=2	=2	=2	=2	=2	=2	=2	=2	=2	=2	=2	=2	=2	=2	=2	=2	=2	=2	=2	=2	=2	=2	=2	=2	=2	=2	=2	=2	=2	=2	=2
2r	.	.	2r	.	(4a/	.	(4ff#\	.	2r	.	.	2r	.	.	2r	.	.	2r	.	.	.	.	.	.	.	.	.	.	.	.	.	.	.	.
.	.	.	.	.	4g/)	.	4ee\)	.	.	.	.	.	.	.	.	.	.	.	.	.	.	.	.	.	.	.	.	.	.	.	.	.	.	.
8D\L	8	.	8a|\L	.	8f#|/L	.	8dd|\L	.	4D\	-re-	.	4A\	-re-	.	4f#\	-re-	.	4dd\	-re-	.	.	.	.	.	.	.	.	.	.	.	.	.	.	.
8D\J	.	.	8a|\J	.	8f#|/J	.	8dd|\J	.	.	.	.	.	.	.	.	.	.	.	.	.	.	.	.	.	.	.	.	.	.	.	.	.	.	.
4D\	.	.	4a|\	.	4f#|/	.	4dd|\	.	4D\	-re	.	4A\	-re	.	4f#\	-re	.	4dd\	-re	.	.	.	.	.	.	.	.	.	.	.	.	.	.	.
!	!	!	!	!	!LO:LB:g=original	!	!	!	!	!	!	!	!	!	!LO:LB:g=original	!	!	!LO:LB:g=original	!	!	!	!	!	!	!	!	!	!	!	!	!	!	!	!
=3	=3	=3	=3	=3	=3	=3	=3	=3	=3	=3	=3	=3	=3	=3	=3	=3	=3	=3	=3	=3	=3	=3	=3	=3	=3	=3	=3	=3	=3	=3	=3	=3	=3	=3
!	!	!	!	!	!LO:TX:t=P:problem:all\right	!	!	!	!	!	!	!	!	!	!	!	!	!	!	!	!	!	!	!	!	!	!	!	!	!	!	!	!	!
2r	.	.	(4c#\	.	(4ee\	.	(4gg\	.	2r	.	.	2r	.	.	2r	.	.	2r	.	.	.	.	.	.	.	.	.	.	.	.	.	.	.	.
.	.	.	4d\)	.	4dd\)	.	4ff#\)	.	.	.	.	.	.	.	.	.	.	.	.	.	.	.	.	.	.	.	.	.	.	.	.	.	.	.
8AA/L	8	.	8a|\L	.	8cc#|\L	.	8ee|\L	.	4A\	mi-	.	4c#\	mi-	.	4a\	mi-	.	4ee\	mi-	.	.	.	.	.	.	.	.	.	.	.	.	.	.	.
8AA/J	.	.	8a|\J	.	8cc#|\J	.	8ee|\J	.	.	.	.	.	.	.	.	.	.	.	.	.	.	.	.	.	.	.	.	.	.	.	.	.	.	.
4AA/	.	.	4a|\	.	4cc#|\	.	4ee|\	.	4A\	-se-	.	4c#\	-se-	.	4a\	-se-	.	4ee\	-se-	.	.	.	.	.	.	.	.	.	.	.	.	.	.	.
!	!	!	!	!	!	!	!LO:LB:g=original	!	!	!	!	!	!	!	!	!	!	!	!	!	!	!	!	!	!	!	!	!	!	!	!	!	!	!
=4	=4	=4	=4	=4	=4	=4	=4	=4	=4	=4	=4	=4	=4	=4	=4	=4	=4	=4	=4	=4	=4	=4	=4	=4	=4	=4	=4	=4	=4	=4	=4	=4	=4	=4
2r	.	.	(4c#\	.	(4ee\	.	(4gg\	.	2r	.	.	2r	.	.	2r	.	.	2r	.	.	.	.	.	.	.	.	.	.	.	.	.	.	.	.
.	.	.	4d\)	.	4dd\)	.	4ff#\)	.	.	.	.	.	.	.	.	.	.	.	.	.	.	.	.	.	.	.	.	.	.	.	.	.	.	.
8AA/L	.	.	8a|\L	.	8cc#|\L	.	8ee|\L	.	4A\	-re-	.	4c#\	-re-	.	4a\	-re-	.	4ee\	-re-	.	.	.	.	.	.	.	.	.	.	.	.	.	.	.
8AA/J	.	.	8a|\J	.	8cc#|\J	.	8ee|\J	.	.	.	.	.	.	.	.	.	.	.	.	.	.	.	.	.	.	.	.	.	.	.	.	.	.	.
4AA/	.	.	4a|\	.	4cc#|\	.	4ee|\	.	4A\	-re	.	4c#\	-re	.	4a\	-re	.	4ee\	-re	.	.	.	.	.	.	.	.	.	.	.	.	.	.	.
!	!	!	!	!	!	!	!	!	!	!	!	!LO:LB:g=original	!	!	!	!	!	!	!	!	!	!	!	!	!	!	!	!	!	!	!	!	!	!
=5	=5	=5	=5	=5	=5	=5	=5	=5	=5	=5	=5	=5	=5	=5	=5	=5	=5	=5	=5	=5	=5	=5	=5	=5	=5	=5	=5	=5	=5	=5	=5	=5	=5	=5
2r	.	.	4d\	.	(4ff#\	.	(4aa\	.	4D\	mi-	.	4f#\	mi-	.	4dd\	mi-	.	4aa\	mi-	.	0r	.	0r	.	0r	.	0r	.	0r	.	0r	.	0r	.
.	.	.	4A/	.	4ee\)	.	4gg\)	.	4A\	-se-	.	4e\	-se-	.	4a\	-se-	.	4gg\	-se-	.	.	.	.	.	.	.	.	.	.	.	.	.	.	.
!	!	!	!LO:TX:t=P:problem:mixed beam	!	!	!	!	!	!	!	!	!	!	!	!	!	!	!	!	!	!	!	!	!	!	!	!	!	!	!	!	!	!	!
4D\	.	.	8B/L	.	8dd|\L	.	8ff#|\L	.	4B\	-re-	.	4d\	-re-	.	4b\	-re-	.	4ff#\	-re-	.	.	.	.	.	.	.	.	.	.	.	.	.	.	.
.	.	.	8b\	.	8dd|\	.	8ff#|\	.	.	.	.	.	.	.	.	.	.	.	.	.	.	.	.	.	.	.	.	.	.	.	.	.	.	.
!	!	!	!	!	!	!	!	!	!	!	!	!	!	!	!	!	!	!	!	!	!	!	!	!	!	!	!	!	!	!	!	!	!	!
4d\	.	.	8b\	.	8dd|\	.	8ff#|\	.	4B\	-re	.	4d\	-re	.	4b\	-re	.	4ff#\	-re	.	.	.	.	.	.	.	.	.	.	.	.	.	.	.
.	.	.	8b\J	.	8dd|\J	.	8ff#|\J	.	.	.	.	.	.	.	.	.	.	.	.	.	.	.	.	.	.	.	.	.	.	.	.	.	.	.
=6	=6	=6	=6	=6	=6	=6	=6	=6	=6	=6	=6	=6	=6	=6	=6	=6	=6	=6	=6	=6	=6	=6	=6	=6	=6	=6	=6	=6	=6	=6	=6	=6	=6	=6
4A\	.	.	4g\	.	4b\	.	4gg\	.	(4G\	no-	.	(4B\	no-	.	4g\	no-	.	4gg\	no-	.	.	.	.	.	.	.	.	.	.	.	.	.	.	.
4AA/	.	.	4a\	.	(8g/L	.	(8ee\L	.	4A\)	.	.	4A\)	.	.	8g\L	.	.	8ee\L	.	.	.	.	.	.	.	.	.	.	.	.	.	.	.	.
.	.	.	.	.	8e/J)	.	8cc#\J)	.	.	.	.	.	.	.	8e\J	.	.	8cc#\J	.	.	.	.	.	.	.	.	.	.	.	.	.	.	.	.
4D\	.	.	4a\	.	4f#/	.	4dd\	.	4D\	-bis	.	4A\	-bis	.	4f#\	-bis	.	4dd\	-bis	.	.	.	.	.	.	.	.	.	.	.	.	.	.	.
!	!	!	!	!	!	!	!	!	!	!	!	!	!	!	!	!	!	!LO:TX:b:t=Volti Subito:mod=	!	!	!	!	!	!	!	!	!	!	!	!	!	!	!	!
4r	.	.	4r	.	4r	.	4r	.	4r	.	.	4r	.	.	4r	.	.	4r	.	.	.	.	.	.	.	.	.	.	.	.	.	.	.	.
!	!	!	!	!	!	!	!	!	!	!	!	!	!	!	!	!	!	!LO:LB:g=original	!	!	!	!	!	!	!	!	!	!	!	!	!	!	!	!
!	!	!	!	!	!	!	!	!	!	!	!	!	!	!	!	!	!	!LO:PB:g=original	!	!	!	!	!	!	!	!	!	!	!	!	!	!	!	!
=7	=7	=7	=7	=7	=7	=7	=7	=7	=7	=7	=7	=7	=7	=7	=7	=7	=7	=7	=7	=7	=7	=7	=7	=7	=7	=7	=7	=7	=7	=7	=7	=7	=7	=7
!	!	!	!	!	!	!	!	!	!	!	!	!	!	!	!	!	!	!	!	!	!	!	!	!	!	!	!	!	!	!	!	!LO:MO:null:mod=!LO&colon;DY&colon;ed=brack	!	!
!	!	!	!	!	!	!	!	!	!	!	!	!	!	!	!	!	!	!	!	!	!	!	!	!	!	!	!	!	!	!	!	!	!	!
!	!	!	!	!	!	!LO:DY:a:t=forto	!	!LO:DY:b:t=forto	!	!	!	!	!	!	!	!	!	!	!	!	!	!	!	!	!	!	!	!LO:DY:b:t=forto	!LO:TX:t=P:problem:all\right	!LO:DY:a:t=forto	!	!LO:MO:null:mod=f	!LO:TX:t=P:problem:all\right	!LO:DY:a:t=for
2r	.	.	2r	.	(4a/	f	(4ff#\	f	2r	.	.	2r	.	.	2r	.	.	2r	.	.	2r	.	2r	.	2r	.	(4a\	f	(4ff#\	f	(4a/	.	(4ff#\	f
.	.	.	.	.	4g/)	.	4ee\)	.	.	.	.	.	.	.	.	.	.	.	.	.	.	.	.	.	.	.	4g\)	.	4ee\)	.	4g/)	.	4ee\)	.
!	!	!LO:MO:null:mod=!LO&colon;DY&colon;ed=brack	!	!	!	!	!	!	!	!	!	!	!	!	!	!	!	!	!	!	!	!	!	!LO:MO:null:mod=!LO&colon;DY&colon;ed=brack	!	!	!	!	!	!	!	!	!	!
!	!	!	!	!	!	!	!	!	!	!	!	!	!	!	!	!	!	!	!	!	!	!	!	!	!	!	!	!	!	!	!	!	!	!
!	!	!LO:MO:null:mod=f	!	!LO:DY:b:t=forto	!	!	!	!	!	!	!LO:DY:a:t=forto	!	!	!LO:DY:a:t=forto	!	!	!LO:DY:a:t=forto	!	!	!LO:DY:a:t=forto	!LO:TX:t=P:problem:all\right	!LO:DY:b:t=forto	!	!LO:MO:null:mod=f	!LO:TX:t=P:problem:all\right	!LO:DY:b:t=fort	!	!	!	!	!	!	!	!
8D\L	.	.	8a|\L	f	8f#|/L	.	8dd|\L	.	4D\	mi-	f	4A\	mi-	f	4f#\	mi-	f	4dd\	mi-	f	8D\L	f	8f#/L	.	8dd\L	f	8f#|/L	.	8dd|\L	.	8f#'/L	.	8dd|\L	.
8D\J	.	.	8a|\J	.	8f#|/J	.	8dd|\J	.	.	.	.	.	.	.	.	.	.	.	.	.	8D\J	.	8f#/J	.	8dd\J	.	8f#|/J	.	8dd|\J	.	8f#|/J	.	8dd|\J	.
4D\	.	.	4a|\	.	4f#|/	.	4dd|\	.	4D\	-se-	.	4A\	-se-	.	4f#\	-se-	.	4dd\	-se-	.	4D\	.	4f#/	.	4dd\	.	4f#|/	.	4dd|\	.	4f#|/	.	4dd|\	.
!LO:LB:g=original	!	!	!	!	!	!	!	!	!	!	!	!	!	!	!	!	!	!	!	!	!	!	!	!	!	!	!	!	!	!	!	!	!	!
=8	=8	=8	=8	=8	=8	=8	=8	=8	=8	=8	=8	=8	=8	=8	=8	=8	=8	=8	=8	=8	=8	=8	=8	=8	=8	=8	=8	=8	=8	=8	=8	=8	=8	=8
2r	.	.	2r	.	(4a/	.	(4ff#\	.	2r	.	.	2r	.	.	2r	.	.	2r	.	.	2r	.	2r	.	2r	.	(4a\	.	(4ff#\	.	(4a/	.	(4ff#\	.
.	.	.	.	.	4g/)	.	4ee\)	.	.	.	.	.	.	.	.	.	.	.	.	.	.	.	.	.	.	.	4g\)	.	4ee\)	.	4g/)	.	4ee\)	.
8D\L	.	.	8a|\L	.	8f#|/L	.	8dd|\L	.	4D\	-re-	.	4A\	-re-	.	4f#\	-re-	.	4dd\	-re-	.	8D\L	.	8f#/L	.	8dd\L	.	8f#/L	.	8dd|\L	.	8f#|/L	.	8dd|\L	.
8D\J	.	.	8a|\J	.	8f#|/J	.	8dd|\J	.	.	.	.	.	.	.	.	.	.	.	.	.	8D\J	.	8f#/J	.	8dd\J	.	8f#/J	.	8dd|\J	.	8f#|/J	.	8dd|\J	.
4D\	.	.	4a|\	.	4f#|/	.	4dd|\	.	4D\	-re	.	4A\	-re	.	4f#\	-re	.	4dd\	-re	.	4D\	.	4f#/	.	4dd\	.	4f#/	.	4dd|\	.	4f#|/	.	4dd|\	.
!	!	!	!	!	!	!	!	!	!	!	!	!	!	!	!	!	!	!	!	!	!LO:LB:g=original	!	!	!	!	!	!	!	!	!	!	!	!	!
=9	=9	=9	=9	=9	=9	=9	=9	=9	=9	=9	=9	=9	=9	=9	=9	=9	=9	=9	=9	=9	=9	=9	=9	=9	=9	=9	=9	=9	=9	=9	=9	=9	=9	=9
!	!	!	!	!	!	!	!	!	!	!	!	!	!	!	!	!	!	!	!	!	!	!	!	!	!	!	!LO:TX:t=P:problem:all\right	!	!	!	!LO:TX:t=P:problem:all\right	!	!	!
2r	.	.	(4c#\	.	(4ee\	.	(4gg\	.	2r	.	.	2r	.	.	2r	.	.	2r	.	.	2r	.	2r	.	2r	.	(4ee\	.	(4gg\	.	(4ee\	.	(4gg\	.
.	.	.	4d\)	.	4dd\)	.	4ff#\)	.	.	.	.	.	.	.	.	.	.	.	.	.	.	.	.	.	.	.	4dd\)	.	4ff#\)	.	4dd\)	.	4ff#\)	.
8AA/L	.	.	8a|\L	.	8cc#|\L	.	8ee|\L	.	4A\	mi-	.	4c#\	mi-	.	4a\	mi-	.	4ee\	mi-	.	8AA/L	.	8a/L	.	8ee\L	.	8cc#|\L	.	8ee|\L	.	8cc#|\L	.	8ee|\L	.
8AA/J	.	.	8a|\J	.	8cc#|\J	.	8ee|\J	.	.	.	.	.	.	.	.	.	.	.	.	.	8AA/J	.	8a/J	.	8ee\J	.	8cc#|\J	.	8ee|\J	.	8cc#|\J	.	8ee|\J	.
4AA/	.	.	4a|\	.	4cc#|\	.	4ee|\	.	4A\	-se-	.	4c#\	-se-	.	4a\	-se-	.	4ee\	-se-	.	4AA/	.	4a/	.	4ee\	.	4cc#|\	.	4ee|\	.	4cc#|\	.	4ee|\	.
!	!	!	!	!	!	!	!	!	!LO:LB:g=original	!	!	!	!	!	!	!	!	!	!	!	!	!	!	!	!	!	!	!	!	!	!	!	!	!
=10	=10	=10	=10	=10	=10	=10	=10	=10	=10	=10	=10	=10	=10	=10	=10	=10	=10	=10	=10	=10	=10	=10	=10	=10	=10	=10	=10	=10	=10	=10	=10	=10	=10	=10
2r	.	.	(4c#\	.	(4ee\	.	(4gg\	.	2r	.	.	2r	.	.	2r	.	.	2r	.	.	2r	.	2r	.	2r	.	(4ee\	.	(4gg\	.	(4ee\	.	(4gg\	.
.	.	.	4d\)	.	4dd\)	.	4ff#\)	.	.	.	.	.	.	.	.	.	.	.	.	.	.	.	.	.	.	.	4dd\)	.	4ff#\)	.	4dd\)	.	4ff#\)	.
8AA/L	.	.	8a|\L	.	8cc#|\L	.	8ee|\L	.	4A\	-re-	.	4c#\	-re-	.	4a\	-re-	.	4ee\	-re-	.	8AA/L	.	8a/L	.	8ee\L	.	8cc#|\L	.	8ee|\L	.	8cc#|\L	.	8ee|\L	.
8AA/J	.	.	8a|\J	.	8cc#|\J	.	8ee|\J	.	.	.	.	.	.	.	.	.	.	.	.	.	8AA/J	.	8a/J	.	8ee\J	.	8cc#|\J	.	8ee|\J	.	8cc#|\J	.	8ee|\J	.
4AA/	.	.	4a\	.	4cc#|\	.	4ee|\	.	4A\	-re	.	4c#\	-re	.	4a\	-re	.	4ee\	-re	.	4AA/	.	4a/	.	4ee\	.	4cc#\	.	4ee|\	.	4cc#|\	.	4ee|\	.
=11	=11	=11	=11	=11	=11	=11	=11	=11	=11	=11	=11	=11	=11	=11	=11	=11	=11	=11	=11	=11	=11	=11	=11	=11	=11	=11	=11	=11	=11	=11	=11	=11	=11	=11
!	!	!	!	!	!	!	!	!	!	!	!	!	!	!	!	!	!	!	!	!	!	!	!	!	!	!	!	!	!LO:SIC:s=(4aa	!	!	!	!LO:SIC:s=(4aa	!
2r	.	.	(4d\	.	(4ff#\	.	(4aa\	.	4d\	mi-	.	4f#\	mi-	.	4d\	mi-	.	4aa\	mi-	.	4D\	.	4f#/	.	4dd\	.	(4ff#\	.	4aa\	.	(4ff#\	.	4aa\	.
!	!	!	!	!	!	!	!	!	!	!	!	!	!	!	!	!	!	!	!	!	!	!	!	!	!	!	!	!	!LO:SIC:s=4gg)	!	!	!	!LO:SIC:s=4gg)	!
.	.	.	4a\)	.	4ee\)	.	4gg\)	.	4A\	-se-	.	4e\	-se-	.	4a\	-se-	.	4gg\	-se-	.	4r	.	4a/	.	4ee\	.	4ee\)	.	4gg\	.	4ee\)	.	4gg\	.
!	!	!	!	!	!	!	!	!	!	!	!	!	!	!	!	!	!	!	!	!	!	!	!LO:TX:t=P:problem:all\right	!	!	!	!	!	!	!	!	!	!LO:LB:g=original	!
4D\	.	.	8b|\L	.	8dd|\L	.	8ff#|\L	.	4B\	-re-	.	4d\	-re-	.	4b\	-re-	.	4ff#\	-re-	.	2r	.	4dd\	.	4ff#\	.	8dd|\L	.	8ff#\L	.	8dd|\L	.	8ff#\L	.
.	.	.	8b|\	.	8dd|\	.	8ff#|\	.	.	.	.	.	.	.	.	.	.	.	.	.	.	.	.	.	.	.	8dd|\	.	8ff#\	.	8dd|\	.	8ff#\	.
!	!	!	!	!	!	!	!	!	!	!	!	!	!	!	!	!	!	!	!	!	!	!	!	!	!LO:TX:t=P:problem:niepełna miara taktu	!	!	!	!	!	!	!	!	!
4d\	.	.	8b|\	.	8dd|\	.	8ff#|\	.	4B\	-re	.	4d\	-re	.	4b\	-re	.	4ff#\	-re	.	.	.	4r	.	4ryy	.	8dd|\	.	8ff#\	.	8dd|\	.	8ff#\	.
.	.	.	8b|\J	.	8dd|\J	.	8ff#|\J	.	.	.	.	.	.	.	.	.	.	.	.	.	.	.	.	.	.	.	8dd|\J	.	8ff#\J	.	8dd|\J	.	8ff#\J	.
!	!	!	!LO:LB:g=original	!	!LO:LB:g=original	!	!	!	!	!	!	!	!	!	!LO:LB:g=original	!	!	!	!	!	!	!	!	!	!	!	!	!	!	!	!	!	!	!
=12	=12	=12	=12	=12	=12	=12	=12	=12	=12	=12	=12	=12	=12	=12	=12	=12	=12	=12	=12	=12	=12	=12	=12	=12	=12	=12	=12	=12	=12	=12	=12	=12	=12	=12
!	!	!	!	!	!	!	!	!	!LO:N:vis=8	!	!	!	!	!	!	!	!	!	!	!	!	!	!	!	!	!	!	!	!	!	!	!	!	!
!	!	!	!	!	!	!	!	!	!LO:SIC:s=(4G	!	!	!	!	!	!	!	!	!	!	!	!	!	!	!	!	!	!	!	!	!	!	!	!	!
4A\	.	.	4g\	.	4b\	.	4gg\	.	(4G\L	no-	.	(4G/	no-	.	4b\	no-	.	4gg\	no-	.	4r	.	4r	.	4r	.	4b\	.	4gg\	.	4b\	.	4gg\	.
!	!	!	!	!	!	!	!	!	!LO:N:vis=8	!	!	!	!	!	!	!	!	!	!	!	!	!	!	!	!	!	!	!	!	!	!	!	!	!
!	!	!	!	!	!LO:SIC:s=(8gL	!	!LO:SIC:s=(8eeL	!	!LO:SIC:s=4A)	!	!	!	!	!	!LO:SIC:s=(8gL	!	!	!LO:SIC:s=(8eeL	!	!	!	!	!	!	!	!	!	!	!	!	!	!	!	!
4AA/	.	.	4a\	.	8g/L	.	8ee\L	.	4A\J)	.	.	4A/)	.	.	8g\L	.	.	8ee\L	.	.	4AA/	.	4a/	.	4ee\	.	8g\L	.	8ee\L	.	8g/L	.	8ee\L	.
!	!	!	!	!	!LO:SIC:s=8aJ)	!	!LO:SIC:s=8ff#J)	!	!	!	!	!	!	!	!LO:SIC:s=8eJ)	!	!	!LO:SIC:s=8ff#J)	!	!	!	!	!	!	!	!	!	!	!	!	!	!	!	!
.	.	.	.	.	8a/J	.	8ff#\J	.	.	.	.	.	.	.	8e\J	.	.	8ff#\J	.	.	.	.	.	.	.	.	8a\J	.	8ff#\J	.	8a/J	.	8ff#\J	.
4D\	.	.	4a\	.	4f#/	.	4dd\	.	4D\	-bis	.	4A/	-bis	.	4f#\	-bis	.	4dd\	-bis	.	4D\	.	4f#/	.	4dd\	.	4f#/	.	4dd\	.	4f#/	.	4dd\	.
4r	.	.	8r	.	8r	.	8r	.	4r	.	.	4r	.	.	4r	.	.	4r	.	.	4r	.	4r	.	4r	.	8r	.	8r	.	8r	.	8r	.
.	.	.	8a\	.	8f#/	.	8ddd\	.	.	.	.	.	.	.	.	.	.	.	.	.	.	.	.	.	.	.	8f#/	.	8ddd\	.	8f#/	.	8ddd\	.
!	!	!	!	!	!	!	!LO:LB:g=original	!	!	!	!	!	!	!	!	!	!	!	!	!	!	!	!	!	!	!	!	!	!LO:LB:g=original	!	!	!	!	!
=13	=13	=13	=13	=13	=13	=13	=13	=13	=13	=13	=13	=13	=13	=13	=13	=13	=13	=13	=13	=13	=13	=13	=13	=13	=13	=13	=13	=13	=13	=13	=13	=13	=13	=13
*	*	*	*	*	*	*	*	*	*2\right	*	*	*2\right	*	*	*2\right	*	*	*2\right	*	*	*	*	*	*	*2\right	*	*	*	*	*	*	*	*	*
!	!	!	!	!	!	!	!	!	!	!	!	!	!	!	!	!	!	!	!	!	!	!	!	!	!	!	!	!	!LO:TUP:a:problem:klamra łukowa	!	!	!	!LO:TUP:a:problem:klamra łukowa	!
4A\	.	.	(8g\L	.	(8e/L	.	12ccc#\L	.	2c#\	mi-	.	2e\	mi-	.	2a\	mi-	.	2gg\	mi-	.	1D	.	2a/	.	2ee\	.	8e/L	.	12ccc#\L	.	8e/L	.	12ccc#\L	.
.	.	.	.	.	.	.	12bb\	.	.	.	.	.	.	.	.	.	.	.	.	.	.	.	.	.	.	.	.	.	12bb\	.	.	.	12bb\	.
.	.	.	8a\)	.	8g/)	.	.	.	.	.	.	.	.	.	.	.	.	.	.	.	.	.	.	.	.	.	8g/	.	.	.	8g/	.	.	.
.	.	.	.	.	.	.	12aa\J	.	.	.	.	.	.	.	.	.	.	.	.	.	.	.	.	.	.	.	.	.	12aa\J	.	.	.	12aa\J	.
!	!	!	!	!	!	!	!	!	!	!	!	!	!	!	!	!	!	!	!	!	!	!	!	!	!	!	!	!	!LO:TUP:a:problem:klamra łukowa	!	!	!	!LO:TUP:a:problem:klamra łukowa	!
4AA/	.	.	(8g\	.	(8e/	.	12gg\L	.	.	.	.	.	.	.	.	.	.	.	.	.	.	.	.	.	.	.	8a/	.	12gg\L	.	8a/	.	12gg\L	.
.	.	.	.	.	.	.	12ff#\	.	.	.	.	.	.	.	.	.	.	.	.	.	.	.	.	.	.	.	.	.	12ff#\	.	.	.	12ff#\	.
.	.	.	8a\J)	.	8g/J)	.	.	.	.	.	.	.	.	.	.	.	.	.	.	.	.	.	.	.	.	.	8g/J	.	.	.	8g/J	.	.	.
.	.	.	.	.	.	.	12ee\J	.	.	.	.	.	.	.	.	.	.	.	.	.	.	.	.	.	.	.	.	.	12ee\J	.	.	.	12ee\J	.
*	*	*	*	*	*	*	*	*	*	*	*	*	*	*	*	*	*	*	*	*	*	*	*2\right	*	*	*	*	*	*	*	*	*	*	*
4D\	.	.	(8f#\L	.	(8f#/L	.	12dd\L	.	2d\	-se-	.	2d\	-se-	.	2a\	-se-	.	2ff#\	-se-	.	.	.	2dd\	.	2ff#\	.	8f#/L	.	4dd\	.	8f#/L	.	4dd\	.
.	.	.	.	.	.	.	12dd\	.	.	.	.	.	.	.	.	.	.	.	.	.	.	.	.	.	.	.	.	.	.	.	.	.	.	.
.	.	.	8a\)	.	8a/)	.	.	.	.	.	.	.	.	.	.	.	.	.	.	.	.	.	.	.	.	.	8a/	.	.	.	8a/	.	.	.
.	.	.	.	.	.	.	12dd\J	.	.	.	.	.	.	.	.	.	.	.	.	.	.	.	.	.	.	.	.	.	.	.	.	.	.	.
*	*	*	*	*	*	*	*tremolo	*	*	*	*	*	*	*	*	*	*	*	*	*	*	*	*	*	*	*	*	*	*	*	*	*	*	*
!	!	!	!	!	!	!	!	!	!	!	!	!	!	!	!	!	!	!	!	!	!	!	!	!	!	!	!	!	!	!	!	!	!	!
!	!	!	!	!	!	!	!LO:TX:t=P:problem: nad tremolo 3	!	!	!	!	!	!	!	!	!	!	!	!	!	!	!	!	!	!	!	!	!	!	!	!	!	!	!
!	!	!	!	!	!	!	!LO:TX:t=P:problem:złe wyświetlanie wartości rytmicznej tremolo:global	!	!	!	!	!	!	!	!	!	!	!	!	!	!	!	!	!	!	!	!	!	!	!	!	!	!	!
!	!	!	!	!	!	!	!LO:N:TREM:vis=4.	!	!	!	!	!	!	!	!	!	!	!	!	!	!	!	!	!	!	!	!	!	!	!	!	!	!	!
4d\	.	.	(8d\	.	(8f#/	.	12dd\L	.	.	.	.	.	.	.	.	.	.	.	.	.	.	.	.	.	.	.	8d/	.	4ff#\	.	8d/	.	4ff#\	.
.	.	.	.	.	.	.	12dd\	.	.	.	.	.	.	.	.	.	.	.	.	.	.	.	.	.	.	.	.	.	.	.	.	.	.	.
.	.	.	8f#\J)	.	8a/J)	.	.	.	.	.	.	.	.	.	.	.	.	.	.	.	.	.	.	.	.	.	8f#/J	.	.	.	8f#/J	.	.	.
.	.	.	.	.	.	.	12dd\J	.	.	.	.	.	.	.	.	.	.	.	.	.	.	.	.	.	.	.	.	.	.	.	.	.	.	.
*	*	*	*	*	*	*	*Xtremolo	*	*	*	*	*	*	*	*	*	*	*	*	*	*	*	*	*	*	*	*	*	*	*	*	*	*	*
!	!	!	!	!	!	!	!	!	!	!	!	!LO:LB:g=original	!	!	!	!	!	!	!	!	!	!	!	!	!	!	!	!	!	!	!LO:LB:g=original	!	!	!
=14	=14	=14	=14	=14	=14	=14	=14	=14	=14	=14	=14	=14	=14	=14	=14	=14	=14	=14	=14	=14	=14	=14	=14	=14	=14	=14	=14	=14	=14	=14	=14	=14	=14	=14
*rep	*	*	*tremolo	*	*	*	*	*	*	*	*	*	*	*	*	*	*	*	*	*	*	*	*	*	*	*	*	*	*	*	*	*	*	*
4A\	.	.	(8e\L	.	(8g/L	.	12ee\L	.	2A\	-re-	.	2c#\	-re-	.	2g\	-re-	.	2ee\	-re-	.	2AA/	.	2a/	.	2ee\	.	8e\L	.	4ee\	.	8e/L	.	4ee\	.
.	.	.	.	.	.	.	12ee\	.	.	.	.	.	.	.	.	.	.	.	.	.	.	.	.	.	.	.	.	.	.	.	.	.	.	.
.	.	.	8g\	.	8a/)	.	.	.	.	.	.	.	.	.	.	.	.	.	.	.	.	.	.	.	.	.	8a\	.	.	.	8a/	.	.	.
.	.	.	.	.	.	.	12ee\J	.	.	.	.	.	.	.	.	.	.	.	.	.	.	.	.	.	.	.	.	.	.	.	.	.	.	.
*	*	*	*	*	*	*	*tremolo	*	*	*	*	*	*	*	*	*	*	*	*	*	*	*	*	*	*	*	*	*	*	*	*	*	*	*
!	!	!	!	!	!	!	!LO:TX:t=P:problem: nad tremolo 3	!	!	!	!	!	!	!	!	!	!	!	!	!	!	!	!	!	!	!	!	!	!	!	!	!	!	!
!	!	!	!	!	!	!	!LO:N:vis=4.	!	!	!	!	!	!	!	!	!	!	!	!	!	!	!	!	!	!	!	!	!	!	!	!	!	!	!
4AA/	.	.	8e\	.	(8g/	.	12aa\L	.	.	.	.	.	.	.	.	.	.	.	.	.	.	.	.	.	.	.	8cc#\	.	4aa\	.	8cc#/	.	4aa\	.
.	.	.	.	.	.	.	12aa\	.	.	.	.	.	.	.	.	.	.	.	.	.	.	.	.	.	.	.	.	.	.	.	.	.	.	.
.	.	.	8g\J)	.	8a/J)	.	.	.	.	.	.	.	.	.	.	.	.	.	.	.	.	.	.	.	.	.	8a\J	.	.	.	8a/J	.	.	.
*	*	*	*	*	*	*	*Xtremolo	*	*	*	*	*	*	*	*	*	*	*	*	*	*	*	*	*	*	*	*	*	*	*	*	*	*	*
.	.	.	.	.	.	.	12aa\J	.	.	.	.	.	.	.	.	.	.	.	.	.	.	.	.	.	.	.	.	.	.	.	.	.	.	.
!	!	!	!	!	!	!	!	!	!	!	!	!	!	!	!	!	!	!	!	!	!	!	!	!	!	!	!	!	!LO:TUP:a:problem:klamra łukowa	!	!	!	!LO:TUP:a:problem:klamra łukowa	!
4D\	.	.	(8d\L	.	(8f#/L	.	12ff#\L	.	4D\	-re	.	4d\	-re	.	4a\	-re	.	4ff#\	-re	.	4D\	.	4f#/	.	4dd\	.	8dd\L	.	12ff#\L	.	8dd\L	.	12ff#\L	.
.	.	.	.	.	.	.	12aa\	.	.	.	.	.	.	.	.	.	.	.	.	.	.	.	.	.	.	.	.	.	12aa\	.	.	.	12aa\	.
.	.	.	8f#\	.	8a/)	.	.	.	.	.	.	.	.	.	.	.	.	.	.	.	.	.	.	.	.	.	8a\	.	.	.	8a/	.	.	.
.	.	.	.	.	.	.	12ff#\J	.	.	.	.	.	.	.	.	.	.	.	.	.	.	.	.	.	.	.	.	.	12ff#\J	.	.	.	12ff#\J	.
4d\	.	.	8d\	.	(8f#/	.	8dd|\L	.	4r	.	.	4r	.	.	4r	.	.	4r	.	.	4r	.	4r	.	4r	.	8f#\	.	4dd\	.	8f#/	.	4dd\	.
.	.	.	8f#\J)	.	8a/J)	.	8ddd|\J	.	.	.	.	.	.	.	.	.	.	.	.	.	.	.	.	.	.	.	8d\J	.	.	.	8d/J	.	.	.
!	!	!	!LO:MO:mod=*null:null	!	!	!	!	!	!	!	!	!	!	!	!	!	!	!	!	!	!	!	!	!	!	!	!	!	!	!	!	!	!	!
*Xrep	*	*	*Xtremolo	*	*	*	*	*	*	*	*	*	*	*	*	*	*	*	*	*	*	*	*	*	*	*	*	*	*	*	*	*	*	*
!LO:LB:g=original	!	!	!	!	!	!	!	!	!	!	!	!	!	!	!	!	!	!LO:LB:g=original	!	!	!	!	!	!	!	!	!LO:LB:g=original	!	!	!	!	!	!	!
=15	=15	=15	=15	=15	=15	=15	=15	=15	=15	=15	=15	=15	=15	=15	=15	=15	=15	=15	=15	=15	=15	=15	=15	=15	=15	=15	=15	=15	=15	=15	=15	=15	=15	=15
*	*	*	*	*	*	*	*	*	*	*	*	*	*	*	*	*	*	*	*	*	*	*	*	*	*	*	*	*	*2\right	*	*	*	*2\right	*
4A\	.	.	(8c#/L	.	(8e/L	.	12ccc#\L	.	2A\	no-	.	2c#\	no-	.	2g\	no-	.	2ee\	no-	.	1D	.	2a/	.	2ee\	.	8e/L	.	2ccc#\	.	8e/L	.	2ccc#\	.
.	.	.	.	.	.	.	12ccc#\	.	.	.	.	.	.	.	.	.	.	.	.	.	.	.	.	.	.	.	.	.	.	.	.	.	.	.
!	!	!	!LO:SIC:s=8A	!	!	!	!	!	!	!	!	!	!	!	!	!	!	!	!	!	!	!	!	!	!	!	!	!	!	!	!	!	!	!
.	.	.	8A/)	.	8g/)	.	.	.	.	.	.	.	.	.	.	.	.	.	.	.	.	.	.	.	.	.	8g/	.	.	.	8g/	.	.	.
.	.	.	.	.	.	.	12ccc#\J	.	.	.	.	.	.	.	.	.	.	.	.	.	.	.	.	.	.	.	.	.	.	.	.	.	.	.
*	*	*	*	*	*	*	*tremolo	*	*	*	*	*	*	*	*	*	*	*	*	*	*	*	*	*	*	*	*	*	*	*	*	*	*	*
!	!	!	!	!	!	!	!LO:TX:t=P:problem: nad tremolo 3	!	!	!	!	!	!	!	!	!	!	!	!	!	!	!	!	!	!	!	!	!	!	!	!	!	!	!
!	!	!	!LO:SIC:s=8c#	!	!	!	!LO:N:vis=4.	!	!	!	!	!	!	!	!	!	!	!	!	!	!	!	!	!	!	!	!	!	!	!	!	!	!	!
4AA/	.	.	(8c#/	.	(8e/	.	12ccc#\L	.	.	.	.	.	.	.	.	.	.	.	.	.	.	.	.	.	.	.	8a/	.	.	.	8a/	.	.	.
.	.	.	.	.	.	.	12ccc#\	.	.	.	.	.	.	.	.	.	.	.	.	.	.	.	.	.	.	.	.	.	.	.	.	.	.	.
.	.	.	8A/J)	.	8g/J)	.	.	.	.	.	.	.	.	.	.	.	.	.	.	.	.	.	.	.	.	.	8g/J	.	.	.	8g/J	.	.	.
*	*	*	*	*	*	*	*Xtremolo	*	*	*	*	*	*	*	*	*	*	*	*	*	*	*	*	*	*	*	*	*	*	*	*	*	*	*
.	.	.	.	.	.	.	12ccc#\J	.	.	.	.	.	.	.	.	.	.	.	.	.	.	.	.	.	.	.	.	.	.	.	.	.	.	.
*	*	*	*tremolo	*	*	*	*	*	*	*	*	*	*	*	*	*	*	*	*	*	*	*	*	*	*	*	*	*	*	*	*	*	*	*
!	!	!	!	!	!	!	!	!	!	!	!	!	!	!	!	!	!	!	!	!	!	!	!	!	!	!	!	!	!LO:TUP:a:problem:klamra łukowa	!	!	!	!LO:TUP:a:problem:klamra łukowa	!
4D\	.	.	(8d\L	.	(8f#/L	.	12ddd\L	.	2d\	-bis	.	2d\	-bis	.	2a\	-bis	.	2ff#\	-bis	.	.	.	2dd\	.	2ff#\	.	8f#/L	.	12ddd\L	.	8f#/L	.	12ddd\L	.
.	.	.	.	.	.	.	12aa\	.	.	.	.	.	.	.	.	.	.	.	.	.	.	.	.	.	.	.	.	.	12aa\	.	.	.	12aa\	.
.	.	.	8f#\	.	8a/)	.	.	.	.	.	.	.	.	.	.	.	.	.	.	.	.	.	.	.	.	.	8a/	.	.	.	8a/	.	.	.
.	.	.	.	.	.	.	12ff#\J	.	.	.	.	.	.	.	.	.	.	.	.	.	.	.	.	.	.	.	.	.	12ff#\J	.	.	.	12ff#\J	.
4d\	.	.	8d\	.	(8f#/	.	8dd|\L	.	.	.	.	.	.	.	.	.	.	.	.	.	.	.	.	.	.	.	8f#/	.	8dd|\L	.	8f#/	.	8dd\L	.
.	.	.	8f#\J)	.	8a/J)	.	8ff#|\J	.	.	.	.	.	.	.	.	.	.	.	.	.	.	.	.	.	.	.	8d/J	.	8ff#|\J	.	8d/J	.	8ff#\J	.
!	!	!	!	!	!	!	!	!	!	!	!	!	!	!	!	!	!	!	!	!	!	!	!	!	!LO:LB:g=original	!	!	!	!	!	!	!	!	!
=16	=16	=16	=16	=16	=16	=16	=16	=16	=16	=16	=16	=16	=16	=16	=16	=16	=16	=16	=16	=16	=16	=16	=16	=16	=16	=16	=16	=16	=16	=16	=16	=16	=16	=16
4A\	.	.	(8e\L	.	(8g/L	.	12ee\L	.	4c#\	no-	.	(4e\	no-	.	(4a\	no-	.	(4gg\	no-	.	2AA/	.	2a/	.	2ee\	.	8e\L	.	4ee\	.	8e/L	.	4ee\	.
.	.	.	.	.	.	.	12ee\	.	.	.	.	.	.	.	.	.	.	.	.	.	.	.	.	.	.	.	.	.	.	.	.	.	.	.
.	.	.	8g\	.	8a/)	.	.	.	.	.	.	.	.	.	.	.	.	.	.	.	.	.	.	.	.	.	8a\	.	.	.	8a/	.	.	.
.	.	.	.	.	.	.	12ee\J	.	.	.	.	.	.	.	.	.	.	.	.	.	.	.	.	.	.	.	.	.	.	.	.	.	.	.
4AA/	.	.	8e\	.	(8g/	.	12aa\L	.	4A\	.	.	4c#\)	.	.	4g\)	.	.	4ee\)	.	.	.	.	.	.	.	.	8cc#\	.	4aa\	.	8cc#/	.	4aa\	.
.	.	.	.	.	.	.	12aa\	.	.	.	.	.	.	.	.	.	.	.	.	.	.	.	.	.	.	.	.	.	.	.	.	.	.	.
.	.	.	8g\J)	.	8a/J)	.	.	.	.	.	.	.	.	.	.	.	.	.	.	.	.	.	.	.	.	.	8a\J	.	.	.	8a/J	.	.	.
.	.	.	.	.	.	.	12aa\J	.	.	.	.	.	.	.	.	.	.	.	.	.	.	.	.	.	.	.	.	.	.	.	.	.	.	.
4D\	.	.	(8d\L	.	(8f#/L	.	4dd|\	.	4d\	-bis	.	4d\	-bis	.	4a\	-bis	.	4ff#|\	-bis	.	4D\	.	4f#/	.	4dd\	.	8dd\L	.	4dd\	.	8dd\L	.	4dd\	.
.	.	.	8f#\	.	8a/)	.	.	.	.	.	.	.	.	.	.	.	.	.	.	.	.	.	.	.	.	.	8d/	.	.	.	8d/	.	.	.
4r	.	.	8d\	.	(8f#/	.	8r	.	4r	.	.	4r	.	.	4r	.	.	4r	.	.	4r	.	4r	.	4r	.	8f#/	.	8r	.	8f#/	.	8r	.
!	!	!	!LO:MO:mod=*null:null	!	!	!	!	!	!	!	!	!	!	!	!	!	!	!	!	!	!	!	!	!	!	!	!	!	!	!	!	!	!	!
*	*	*	*Xtremolo	*	*	*	*	*	*	*	*	*	*	*	*	*	*	*	*	*	*	*	*	*	*	*	*	*	*	*	*	*	*	*
!	!	!	!	!	!	!	!	!LO:DY:b:t=piano	!	!	!	!	!	!	!	!	!	!	!	!	!	!	!	!	!	!	!	!	!	!LO:DY:b:t=pia	!	!	!	!
.	.	.	8f#\J)	.	8a/J)	.	8ddd|\	p	.	.	.	.	.	.	.	.	.	.	.	.	.	.	.	.	.	.	8d/J	.	8ddd\	p	8d/J	.	8ddd\	p
!	!	!	!	!	!	!	!	!	!	!	!	!	!	!	!	!	!	!	!	!	!	!	!LO:LB:g=original	!	!	!	!	!	!	!	!	!	!	!
=17	=17	=17	=17	=17	=17	=17	=17	=17	=17	=17	=17	=17	=17	=17	=17	=17	=17	=17	=17	=17	=17	=17	=17	=17	=17	=17	=17	=17	=17	=17	=17	=17	=17	=17
!	!	!	!	!LO:DY:b:t=piano	!	!LO:DY:b:t=pia	!	!	!	!	!LO:DY:b:t=piano	!	!	!LO:DY:a:t=piano	!	!	!LO:DY:b:t=piano	!	!	!LO:DY:b:t=piano	!LO:TX:b:i:t=NB:mod=	!LO:DY:b:t=piano	!	!LO:DY:b:t=piano	!	!LO:DY:b:t=pia	!	!LO:DY:b:t=piano	!LO:TUP:a:problem:klamra łukowa	!	!	!LO:DY:b:t=p&colon;	!LO:TUP:a:problem:klamra łukowa	!
4A\	.	.	(8c#/L	p	(8e/L	p	12ccc#\L	.	2c#\	mi-	p	2e\	mi-	p	2a\	mi-	p	2gg\	mi-	p	1D	p	2a/	p	2ee\	p	8e/L	p	12ccc#\L	.	8e/L	p	12ccc#\L	.
.	.	.	.	.	.	.	12bb\	.	.	.	.	.	.	.	.	.	.	.	.	.	.	.	.	.	.	.	.	.	12bb\	.	.	.	12bb\	.
!	!	!	!LO:SIC:s=8A	!	!	!	!	!	!	!	!	!	!	!	!	!	!	!	!	!	!	!	!	!	!	!	!	!	!	!	!	!	!	!
.	.	.	8A/)	.	8g/)	.	.	.	.	.	.	.	.	.	.	.	.	.	.	.	.	.	.	.	.	.	8g/	.	.	.	8g/	.	.	.
.	.	.	.	.	.	.	12aa\J	.	.	.	.	.	.	.	.	.	.	.	.	.	.	.	.	.	.	.	.	.	12aa\J	.	.	.	12aa\J	.
!	!	!	!LO:SIC:s=8c#	!	!	!	!	!	!	!	!	!	!	!	!	!	!	!	!	!	!	!	!	!	!	!	!	!	!LO:TUP:a:problem:klamra łukowa	!	!	!	!LO:TUP:a:problem:klamra łukowa	!
4AA/	.	.	(8c#/	.	(8e/	.	12gg\L	.	.	.	.	.	.	.	.	.	.	.	.	.	.	.	.	.	.	.	8a/	.	12gg\L	.	8a/	.	12gg\L	.
.	.	.	.	.	.	.	12ff#\	.	.	.	.	.	.	.	.	.	.	.	.	.	.	.	.	.	.	.	.	.	12ff#\	.	.	.	12ff#\	.
.	.	.	8A/J)	.	8g/J)	.	.	.	.	.	.	.	.	.	.	.	.	.	.	.	.	.	.	.	.	.	8g/J	.	.	.	8g/J	.	.	.
.	.	.	.	.	.	.	12ee\J	.	.	.	.	.	.	.	.	.	.	.	.	.	.	.	.	.	.	.	.	.	12ee\J	.	.	.	12ee\J	.
*	*	*	*tremolo	*	*	*	*	*	*	*	*	*	*	*	*	*	*	*	*	*	*	*	*	*	*	*	*	*	*	*	*	*	*	*
4D\	.	.	(8d\L	.	(8f#/L	.	12dd\L	.	2d\	-se-	.	2d\	-se-	.	2a\	-se-	.	2ff#\	-se-	.	.	.	2dd\	.	2ff#\	.	8f#/L	.	4dd\	.	8f#/L	.	4dd\	.
.	.	.	.	.	.	.	12dd\	.	.	.	.	.	.	.	.	.	.	.	.	.	.	.	.	.	.	.	.	.	.	.	.	.	.	.
.	.	.	8f#\	.	8a/)	.	.	.	.	.	.	.	.	.	.	.	.	.	.	.	.	.	.	.	.	.	8a/	.	.	.	8a/	.	.	.
.	.	.	.	.	.	.	12dd\J	.	.	.	.	.	.	.	.	.	.	.	.	.	.	.	.	.	.	.	.	.	.	.	.	.	.	.
*	*	*	*	*	*	*	*tremolo	*	*	*	*	*	*	*	*	*	*	*	*	*	*	*	*	*	*	*	*	*	*	*	*	*	*	*
!	!	!	!	!	!	!	!LO:TX:t=P:problem: nad tremolo 3	!	!	!	!	!	!	!	!	!	!	!	!	!	!	!	!	!	!	!	!	!	!	!	!	!	!	!
!	!	!	!	!	!	!	!LO:N:vis=4.	!	!	!	!	!	!	!	!	!	!	!	!	!	!	!	!	!	!	!	!	!	!	!	!	!	!	!
4d\	.	.	8d\	.	(8f#/	.	12ff#\L	.	.	.	.	.	.	.	.	.	.	.	.	.	.	.	.	.	.	.	8d/	.	4ff#\	.	8d/	.	4ff#\	.
.	.	.	.	.	.	.	12ff#\	.	.	.	.	.	.	.	.	.	.	.	.	.	.	.	.	.	.	.	.	.	.	.	.	.	.	.
.	.	.	8f#\J)	.	8a/J)	.	.	.	.	.	.	.	.	.	.	.	.	.	.	.	.	.	.	.	.	.	8f#/J	.	.	.	8f#/J	.	.	.
.	.	.	.	.	.	.	12ff#\J	.	.	.	.	.	.	.	.	.	.	.	.	.	.	.	.	.	.	.	.	.	.	.	.	.	.	.
!	!	!	!	!	!	!	!	!	!	!	!	!	!	!	!	!	!	!	!	!	!	!	!	!	!	!	!	!	!	!	!	!	!LO:LB:g=original	!
=18	=18	=18	=18	=18	=18	=18	=18	=18	=18	=18	=18	=18	=18	=18	=18	=18	=18	=18	=18	=18	=18	=18	=18	=18	=18	=18	=18	=18	=18	=18	=18	=18	=18	=18
*rep	*	*	*	*	*	*	*	*	*	*	*	*	*	*	*	*	*	*	*	*	*	*	*	*	*	*	*	*	*	*	*	*	*	*
!	!	!	!	!	!	!	!LO:TX:t=P:problem: nad tremolo 3	!	!	!	!	!	!	!	!	!	!	!	!	!	!	!	!	!	!	!	!	!	!	!	!	!	!	!
!	!	!	!	!	!	!	!LO:N:vis=4.	!	!	!	!	!	!	!	!	!	!	!	!	!	!	!	!	!	!	!	!	!	!	!	!	!	!	!
4A\	.	.	(8e\L	.	(8g/L	.	12ee\L	.	2A\	-re-	.	2c#\	-re-	.	2g\	-re-	.	2ee\	-re-	.	1D	.	2a/	.	2ee\	.	8e\L	.	4ee\	.	8e/L	.	4ee\	.
.	.	.	.	.	.	.	12ee\	.	.	.	.	.	.	.	.	.	.	.	.	.	.	.	.	.	.	.	.	.	.	.	.	.	.	.
.	.	.	8g\	.	8a/)	.	.	.	.	.	.	.	.	.	.	.	.	.	.	.	.	.	.	.	.	.	8a\	.	.	.	8a/	.	.	.
.	.	.	.	.	.	.	12ee\J	.	.	.	.	.	.	.	.	.	.	.	.	.	.	.	.	.	.	.	.	.	.	.	.	.	.	.
!	!	!	!	!	!	!	!LO:TX:t=P:problem: nad tremolo 3	!	!	!	!	!	!	!	!	!	!	!	!	!	!	!	!	!	!	!	!	!	!	!	!	!	!	!
!	!	!	!	!	!	!	!LO:N:vis=4.	!	!	!	!	!	!	!	!	!	!	!	!	!	!	!	!	!	!	!	!	!	!	!	!	!	!	!
4AA/	.	.	8e\	.	(8g/	.	12aa\L	.	.	.	.	.	.	.	.	.	.	.	.	.	.	.	.	.	.	.	8cc#\	.	4aa\	.	8cc#/	.	4aa\	.
.	.	.	.	.	.	.	12aa\	.	.	.	.	.	.	.	.	.	.	.	.	.	.	.	.	.	.	.	.	.	.	.	.	.	.	.
.	.	.	8g\J)	.	8a/J)	.	.	.	.	.	.	.	.	.	.	.	.	.	.	.	.	.	.	.	.	.	8a\J	.	.	.	8a/J	.	.	.
*	*	*	*	*	*	*	*Xtremolo	*	*	*	*	*	*	*	*	*	*	*	*	*	*	*	*	*	*	*	*	*	*	*	*	*	*	*
.	.	.	.	.	.	.	12aa\J	.	.	.	.	.	.	.	.	.	.	.	.	.	.	.	.	.	.	.	.	.	.	.	.	.	.	.
!	!	!	!LO:SIC:s=(8dL	!	!	!	!	!	!	!	!	!	!	!	!	!	!	!	!	!	!	!	!	!	!	!	!	!	!LO:TUP:a:problem:klamra łukowa	!	!	!	!LO:TUP:a:problem:klamra łukowa	!
4D\	.	.	8d\L	.	(8f#/L	.	12ff#\L	.	4D\	-re	.	4d\	-re	.	4a\	-re	.	4ff#\	-re	.	.	.	2f#/	.	2dd\	.	8dd\L	.	12ff#\L	.	8dd/L	.	12ff#\L	.
.	.	.	.	.	.	.	12aa\	.	.	.	.	.	.	.	.	.	.	.	.	.	.	.	.	.	.	.	.	.	12aa\	.	.	.	12aa\	.
.	.	.	8f#\	.	8a/)	.	.	.	.	.	.	.	.	.	.	.	.	.	.	.	.	.	.	.	.	.	8a\	.	.	.	8a/	.	.	.
.	.	.	.	.	.	.	12ff#\J	.	.	.	.	.	.	.	.	.	.	.	.	.	.	.	.	.	.	.	.	.	12ff#\J	.	.	.	12ff#\J	.
4d\	.	.	8d\	.	(8f#/	.	8dd|\L	.	4r	.	.	4r	.	.	4r	.	.	4r	.	.	.	.	.	.	.	.	8f#\	.	8dd\L	.	8f#/	.	8dd\L	.
!	!	!	!LO:SIC:s=8f#J)	!	!	!	!	!	!	!	!	!	!	!	!	!	!	!	!	!	!	!	!	!	!	!	!	!	!	!	!	!	!	!
.	.	.	8f#\J	.	8a/J)	.	8ddd|\J	.	.	.	.	.	.	.	.	.	.	.	.	.	.	.	.	.	.	.	8d\J	.	8ddd\J	.	8d/J	.	8ddd\J	.
*Xrep	*	*	*	*	*	*	*	*	*	*	*	*	*	*	*	*	*	*	*	*	*	*	*	*	*	*	*	*	*	*	*	*	*	*
!	!	!	!	!	!LO:LB:g=original	!	!	!	!LO:LB:g=original	!	!	!	!	!	!	!	!	!	!	!	!	!	!	!	!	!	!	!	!	!	!	!	!	!
=19	=19	=19	=19	=19	=19	=19	=19	=19	=19	=19	=19	=19	=19	=19	=19	=19	=19	=19	=19	=19	=19	=19	=19	=19	=19	=19	=19	=19	=19	=19	=19	=19	=19	=19
*rep	*	*	*	*	*	*	*	*	*	*	*	*	*	*	*	*	*	*	*	*	*	*	*	*	*	*	*	*	*	*	*	*	*	*
4A\	.	.	(8c#\L	.	(8e/L	.	12ccc#\L	.	2A\	no-	.	2c#\	no-	.	2g\	no-	.	2ee\	no-	.	1D	.	2a/	.	2ee\	.	8e\L	.	2ccc#\	.	8e/L	.	2ccc#\	.
.	.	.	.	.	.	.	12ccc#\	.	.	.	.	.	.	.	.	.	.	.	.	.	.	.	.	.	.	.	.	.	.	.	.	.	.	.
.	.	.	8e\	.	8g/)	.	.	.	.	.	.	.	.	.	.	.	.	.	.	.	.	.	.	.	.	.	8g\	.	.	.	8g/	.	.	.
.	.	.	.	.	.	.	12ccc#\J	.	.	.	.	.	.	.	.	.	.	.	.	.	.	.	.	.	.	.	.	.	.	.	.	.	.	.
*	*	*	*	*	*	*	*tremolo	*	*	*	*	*	*	*	*	*	*	*	*	*	*	*	*	*	*	*	*	*	*	*	*	*	*	*
!	!	!	!	!	!	!	!LO:N:vis=4.	!	!	!	!	!	!	!	!	!	!	!	!	!	!	!	!	!	!	!	!	!	!	!	!	!	!	!
!	!	!	!	!	!	!	!LO:TX:t=P:problem: nad tremolo 3	!	!	!	!	!	!	!	!	!	!	!	!	!	!	!	!	!	!	!	!	!	!	!	!	!	!	!
4AA/	.	.	8c#\	.	(8e/	.	12ccc#\L	.	.	.	.	.	.	.	.	.	.	.	.	.	.	.	.	.	.	.	8a\	.	.	.	8a/	.	.	.
.	.	.	.	.	.	.	12ccc#\	.	.	.	.	.	.	.	.	.	.	.	.	.	.	.	.	.	.	.	.	.	.	.	.	.	.	.
.	.	.	8e\J)	.	8g/J)	.	.	.	.	.	.	.	.	.	.	.	.	.	.	.	.	.	.	.	.	.	8g\J	.	.	.	8g/J	.	.	.
*	*	*	*	*	*	*	*Xtremolo	*	*	*	*	*	*	*	*	*	*	*	*	*	*	*	*	*	*	*	*	*	*	*	*	*	*	*
!	!	!	!	!	!	!	!LO:LB:g=original	!	!	!	!	!	!	!	!	!	!	!	!	!	!	!	!	!	!	!	!	!	!	!	!	!	!	!
!	!	!	!	!	!	!	!LO:MO:mod=*null:null	!	!	!	!	!	!	!	!	!	!	!	!	!	!	!	!	!	!	!	!	!	!	!	!	!	!	!
*	*	*	*	*	*	*	*Xtuplet	*	*	*	*	*	*	*	*	*	*	*	*	*	*	*	*	*	*	*	*	*	*	*	*	*	*	*
.	.	.	.	.	.	.	12ccc#\J	.	.	.	.	.	.	.	.	.	.	.	.	.	.	.	.	.	.	.	.	.	.	.	.	.	.	.
!	!	!	!	!	!	!	!	!	!	!	!	!	!	!	!	!	!	!	!	!	!	!	!	!	!	!	!	!	!LO:TUP:a:problem:klamra łukowa	!	!LO:LB:g=original	!	!LO:TUP:a:problem:klamra łukowa	!
4D\	.	.	(8d\L	.	(8f#/L	.	12ddd\L	.	2d\	.	.	2d\	.	.	2a\	.	.	2ff#\	.	.	.	.	2dd\	.	2ff#\	.	8f#\L	.	12ddd\L	.	8f#/L	.	12ddd\L	.
.	.	.	.	.	.	.	12aa\	.	.	.	.	.	.	.	.	.	.	.	.	.	.	.	.	.	.	.	.	.	12aa\	.	.	.	12aa\	.
.	.	.	8f#\	.	8a/)	.	.	.	.	.	.	.	.	.	.	.	.	.	.	.	.	.	.	.	.	.	8a\	.	.	.	8a/	.	.	.
.	.	.	.	.	.	.	12ff#\J	.	.	.	.	.	.	.	.	.	.	.	.	.	.	.	.	.	.	.	.	.	12ff#\J	.	.	.	12ff#\J	.
4d\	.	.	8d\	.	(8f#/	.	8dd\L	.	.	.	.	.	.	.	.	.	.	.	.	.	.	.	.	.	.	.	8f#\	.	8dd\L	.	8f#/	.	8dd\L	.
.	.	.	8f#\J)	.	8a/J)	.	8ff#\J	.	.	.	.	.	.	.	.	.	.	.	.	.	.	.	.	.	.	.	8d\J	.	8ff#\J	.	8d/J	.	8ff#\J	.
*Xrep	*	*	*	*	*	*	*	*	*	*	*	*	*	*	*	*	*	*	*	*	*	*	*	*	*	*	*	*	*	*	*	*	*	*
!	!	!	!	!	!	!	!	!	!	!	!	!	!	!	!	!	!	!	!	!	!	!	!	!	!	!	!	!	!LO:LB:g=original	!	!	!	!	!
=20	=20	=20	=20	=20	=20	=20	=20	=20	=20	=20	=20	=20	=20	=20	=20	=20	=20	=20	=20	=20	=20	=20	=20	=20	=20	=20	=20	=20	=20	=20	=20	=20	=20	=20
!	!	!	!LO:SIC:s=(8eL	!	!	!	!	!	!	!	!	!	!	!	!	!	!	!	!	!	!	!	!	!	!	!	!	!	!	!	!	!	!	!
4AA/	.	.	8e\L	.	(8g/L	.	12ee\L	.	4c#\	.	.	(4e\	.	.	(4a\	.	.	4gg\	.	.	2AA/	.	2a/	.	2ee\	.	8e\L	.	4ee\	.	8e/L	.	4ee\	.
.	.	.	.	.	.	.	12ee\	.	.	.	.	.	.	.	.	.	.	.	.	.	.	.	.	.	.	.	.	.	.	.	.	.	.	.
.	.	.	8g\	.	8a/)	.	.	.	.	.	.	.	.	.	.	.	.	.	.	.	.	.	.	.	.	.	8a\	.	.	.	8a/	.	.	.
.	.	.	.	.	.	.	12ee\J	.	.	.	.	.	.	.	.	.	.	.	.	.	.	.	.	.	.	.	.	.	.	.	.	.	.	.
*	*	*	*	*	*	*	*tremolo	*	*	*	*	*	*	*	*	*	*	*	*	*	*	*	*	*	*	*	*	*	*	*	*	*	*	*
!	!	!	!	!	!	!	!LO:N:vis=4.	!	!	!	!	!	!	!	!	!	!	!	!	!	!	!	!	!	!	!	!	!	!	!	!	!	!	!
4A\	.	.	8e\	.	(8g/	.	12aa\L	.	4A\	.	.	4c#\)	.	.	4g\)	.	.	4ee\	.	.	.	.	.	.	.	.	8cc#\	.	4aa\	.	8cc#/	.	4aa\	.
.	.	.	.	.	.	.	12aa\	.	.	.	.	.	.	.	.	.	.	.	.	.	.	.	.	.	.	.	.	.	.	.	.	.	.	.
!	!	!	!LO:SIC:s=8gJ)	!	!	!	!	!	!	!	!	!	!	!	!	!	!	!	!	!	!	!	!	!	!	!	!	!	!	!	!	!	!	!
.	.	.	8g\J	.	8a/J)	.	.	.	.	.	.	.	.	.	.	.	.	.	.	.	.	.	.	.	.	.	8a\J	.	.	.	8a/J	.	.	.
*	*	*	*	*	*	*	*Xtremolo	*	*	*	*	*	*	*	*	*	*	*	*	*	*	*	*	*	*	*	*	*	*	*	*	*	*	*
.	.	.	.	.	.	.	12aa\J	.	.	.	.	.	.	.	.	.	.	.	.	.	.	.	.	.	.	.	.	.	.	.	.	.	.	.
!	!	!	!LO:SIC:s=(8dL	!	!	!	!LO:SIC:s=4dd|	!	!	!	!	!	!	!	!	!	!	!	!	!	!	!	!	!	!	!	!	!	!	!	!	!	!	!
4D\	.	.	8d\L	.	(8f#/L	.	4dd\	.	4d\	-bis	.	4d\	-bis	.	4a\	-bis	.	4ff#\	-bis	.	4D\	.	4f#/	.	4dd\	.	8dd\L	.	4dd\	.	8dd|\L	.	4dd\	.
.	.	.	8f#\	.	8a/)	.	.	.	.	.	.	.	.	.	.	.	.	.	.	.	.	.	.	.	.	.	8d/	.	.	.	8d/	.	.	.
4r	.	.	8d\	.	(8f#/	.	4r	.	4r	.	.	4r	.	.	4r	.	.	4r	.	.	4r	.	4r	.	4r	.	8f#/	.	4r	.	8f#/	.	4r	.
!	!	!	!LO:SIC:s=8f#J)	!	!	!	!	!	!	!	!	!	!	!	!	!	!	!	!	!	!	!	!	!	!	!	!	!	!	!	!	!	!	!
.	.	.	8f#\J	.	8a/J)	.	.	.	.	.	.	.	.	.	.	.	.	.	.	.	.	.	.	.	.	.	8d/J	.	.	.	8d/J	.	.	.
!	!	!	!	!	!	!	!	!	!	!	!	!	!	!	!LO:LB:g=original	!	!	!	!	!	!LO:LB:g=original	!	!	!	!	!	!	!	!	!	!	!	!	!
=21	=21	=21	=21	=21	=21	=21	=21	=21	=21	=21	=21	=21	=21	=21	=21	=21	=21	=21	=21	=21	=21	=21	=21	=21	=21	=21	=21	=21	=21	=21	=21	=21	=21	=21
*	*	*	*	*	*	*	*tuplet	*	*	*	*	*	*	*	*	*	*	*	*	*	*	*	*	*	*	*	*	*	*	*	*	*	*	*
!	!	!	!	!	!	!	!	!	!	!	!	!	!	!	!	!	!	!	!	!	!	!	!	!	!	!	!	!LO:MO:null:mod=!LO&colon;DY&colon;ed=brack	!	!LO:MO:null:mod=!LO&colon;DY&colon;ed=brack	!	!LO:MO:null:mod=!LO&colon;DY&colon;ed=brack	!	!LO:MO:null:mod=!LO&colon;DY&colon;ed=brack
!	!	!	!	!	!	!	!	!	!	!	!	!	!	!	!	!	!	!	!	!	!	!	!	!	!	!	!	!	!	!	!	!	!	!
!	!	!	!LO:SIC:s=(8c#L	!LO:DY:b:t=forto	!	!LO:DY:a:t=forto	!	!LO:DY:b:t=forto	!	!	!LO:DY:a:t=forto	!	!	!LO:DY:a:t=forto	!	!	!LO:DY:a:t=forto	!	!	!LO:DY:a:t=forto	!	!LO:DY:b:t=forto	!	!LO:DY:b:t=forto	!	!LO:DY:b:t=fort	!	!LO:MO:null:mod=f	!	!LO:MO:null:mod=f	!	!LO:MO:null:mod=f	!	!LO:MO:null:mod=f
4AA/	.	.	8c#\L	f	(8e/L	f	12aa\L	f	2A\	mi-	f	2c#\	mi-	f	2g\	mi-	f	2ee\	mi-	f	4AA/	f	4.a/	f	4.ee\	f	8e\L	.	4aa\	.	8e/L	.	4aa\	.
.	.	.	.	.	.	.	12aa\	.	.	.	.	.	.	.	.	.	.	.	.	.	.	.	.	.	.	.	.	.	.	.	.	.	.	.
.	.	.	8e\	.	8g/)	.	.	.	.	.	.	.	.	.	.	.	.	.	.	.	.	.	.	.	.	.	8g\	.	.	.	8g/	.	.	.
.	.	.	.	.	.	.	12aa\J	.	.	.	.	.	.	.	.	.	.	.	.	.	.	.	.	.	.	.	.	.	.	.	.	.	.	.
!	!	!	!	!	!	!	!	!	!	!	!	!	!	!	!	!	!	!	!	!	!	!	!	!	!	!	!	!	!LO:N:vis=32	!	!	!	!	!
4A\	.	.	8c#\	.	(8e/	.	12aa\L	.	.	.	.	.	.	.	.	.	.	.	.	.	8AA/L	.	.	.	.	.	8a\	.	(16aa\LL	.	8a/	.	(16aa\LL	.
!	!	!	!	!	!	!	!	!	!	!	!	!	!	!	!	!	!	!	!	!	!	!	!	!	!	!	!	!	!LO:N:vis=32	!	!	!	!	!
.	.	.	.	.	.	.	.	.	.	.	.	.	.	.	.	.	.	.	.	.	.	.	.	.	.	.	.	.	16gg\	.	.	.	16gg\	.
.	.	.	.	.	.	.	12bb\	.	.	.	.	.	.	.	.	.	.	.	.	.	.	.	.	.	.	.	.	.	.	.	.	.	.	.
!	!	!	!LO:SIC:s=8eJ)	!	!	!	!	!	!	!	!	!	!	!	!	!	!	!	!	!	!	!	!	!	!	!	!	!	!LO:N:vis=32	!	!	!	!	!
.	.	.	8e\J	.	8g/J)	.	.	.	.	.	.	.	.	.	.	.	.	.	.	.	8AA/J	.	8a/	.	8ee\	.	8g\J	.	16ff#\	.	8g/J	.	16ff#\	.
.	.	.	.	.	.	.	12ccc#\J	.	.	.	.	.	.	.	.	.	.	.	.	.	.	.	.	.	.	.	.	.	.	.	.	.	.	.
!	!	!	!	!	!	!	!	!	!	!	!	!	!	!	!	!	!	!	!	!	!	!	!	!	!	!	!	!	!LO:N:vis=32	!	!	!	!	!
.	.	.	.	.	.	.	.	.	.	.	.	.	.	.	.	.	.	.	.	.	.	.	.	.	.	.	.	.	16ee\JJ)	.	.	.	16ee\JJ)	.
!	!	!	!LO:SIC:s=(8dL	!	!	!	!	!	!	!	!	!	!	!	!	!	!	!	!	!	!	!	!	!	!	!	!	!	!	!	!	!	!	!
4D\	.	.	8d\L	.	(8f#/L	.	4ddd|\	.	4D\	-se-	.	4d\	-se-	.	4a\	-se-	.	4ff#\	-se-	.	4D\	.	4dd\	.	4ff#\	.	8f#/L	.	4dd\	.	8f#/L	.	4dd\	.
.	.	.	8f#\	.	8a/)	.	.	.	.	.	.	.	.	.	.	.	.	.	.	.	.	.	.	.	.	.	8a/	.	.	.	8a/	.	.	.
4r	.	.	8d\	.	(8f#/	.	4r	.	4r	.	.	4r	.	.	4r	.	.	4r	.	.	4r	.	4r	.	4r	.	8f#/	.	4r	.	8f#/	.	4r	.
!	!	!	!LO:MO:mod=*null:null	!	!	!	!	!	!	!	!	!	!	!	!	!	!	!	!	!	!	!	!	!	!	!	!	!	!	!	!	!	!	!
*	*	*	*Xtremolo	*	*	*	*	*	*	*	*	*	*	*	*	*	*	*	*	*	*	*	*	*	*	*	*	*	*	*	*	*	*	*
!	!	!	!LO:SIC:s=8f#J)	!	!	!	!	!	!	!	!	!	!	!	!	!	!	!	!	!	!	!	!	!	!	!	!	!	!	!	!	!	!	!
.	.	.	8f#\J	.	8a/J)	.	.	.	.	.	.	.	.	.	.	.	.	.	.	.	.	.	.	.	.	.	8d/J	.	.	.	8d/J	.	.	.
!LO:LB:g=original	!	!	!	!	!	!	!	!	!	!	!	!	!	!	!	!	!	!	!	!	!	!	!	!	!	!	!LO:LB:g=original	!	!	!	!	!	!	!
=22	=22	=22	=22	=22	=22	=22	=22	=22	=22	=22	=22	=22	=22	=22	=22	=22	=22	=22	=22	=22	=22	=22	=22	=22	=22	=22	=22	=22	=22	=22	=22	=22	=22	=22
!LO:MO:mod=*null:null	!	!	!	!	!	!	!	!	!	!	!	!	!	!	!	!	!	!	!	!	!	!	!	!	!	!	!	!	!	!	!	!	!	!
*Xtuplet	*	*	*	*	*	*	*	*	*	*	*	*	*	*	*	*	*	*	*	*	*	*	*	*	*	*	*	*	*	*	*	*	*	*
!LO:TX:a:t=a:mod=	!	!	!LO:SIC:s=(8c#L	!	!	!	!	!	!	!	!	!	!	!	!	!	!	!	!	!	!	!	!	!	!	!	!	!	!	!	!	!	!	!
12AA\L	.	f	8c#\L	.	(8e/L	.	12aa\L	.	2A\	-re-	.	2c#\	-re-	.	2g\	-re-	.	2ee\	-re-	.	4AA/	.	4.a/	.	4.ee\	.	8e\L	.	4aa\	.	8e/L	.	4aa\	.
!LO:TX:a:t=a:mod=	!	!	!	!	!	!	!	!	!	!	!	!	!	!	!	!	!	!	!	!	!	!	!	!	!	!	!	!	!	!	!	!	!	!
12AA\	.	.	.	.	.	.	12aa\	.	.	.	.	.	.	.	.	.	.	.	.	.	.	.	.	.	.	.	.	.	.	.	.	.	.	.
.	.	.	8e\	.	8g/)	.	.	.	.	.	.	.	.	.	.	.	.	.	.	.	.	.	.	.	.	.	8g\	.	.	.	8g/	.	.	.
!LO:TX:a:t=a:mod=	!	!	!	!	!	!	!	!	!	!	!	!	!	!	!	!	!	!	!	!	!	!	!	!	!	!	!	!	!	!	!	!	!	!
12AA\J	.	.	.	.	.	.	12aa\J	.	.	.	.	.	.	.	.	.	.	.	.	.	.	.	.	.	.	.	.	.	.	.	.	.	.	.
!	!	!	!	!	!	!	!	!	!	!	!	!	!	!	!	!	!	!	!	!	!	!	!	!	!	!	!	!	!LO:N:vis=32	!	!	!	!	!
12AA\L	.	.	8c#\	.	(8e/	.	12aa\L	.	.	.	.	.	.	.	.	.	.	.	.	.	8AA/L	.	.	.	.	.	8a\	.	(16aa\LL	.	8a/	.	(16aa\LL	.
!	!	!	!	!	!	!	!	!	!	!	!	!	!	!	!	!	!	!	!	!	!	!	!	!	!	!	!	!	!LO:N:vis=32	!	!	!	!	!
.	.	.	.	.	.	.	.	.	.	.	.	.	.	.	.	.	.	.	.	.	.	.	.	.	.	.	.	.	16gg\	.	.	.	16gg\	.
12BB\	.	.	.	.	.	.	12bb\	.	.	.	.	.	.	.	.	.	.	.	.	.	.	.	.	.	.	.	.	.	.	.	.	.	.	.
!	!	!	!LO:SIC:s=8eJ)	!	!	!	!	!	!	!	!	!	!	!	!	!	!	!	!	!	!	!	!	!	!	!	!	!	!LO:N:vis=32	!	!	!	!	!
.	.	.	8e\J	.	8g/J)	.	.	.	.	.	.	.	.	.	.	.	.	.	.	.	8AA/J	.	8a/	.	8ee\	.	8g\J	.	16ff#\	.	8g/J	.	16ff#\	.
12C#\J	.	.	.	.	.	.	12ccc#\J	.	.	.	.	.	.	.	.	.	.	.	.	.	.	.	.	.	.	.	.	.	.	.	.	.	.	.
!	!	!	!	!	!	!	!	!	!	!	!	!	!	!	!	!	!	!	!	!	!	!	!	!	!	!	!	!	!LO:N:vis=32	!	!	!	!	!
.	.	.	.	.	.	.	.	.	.	.	.	.	.	.	.	.	.	.	.	.	.	.	.	.	.	.	.	.	16ee\JJ)	.	.	.	16ee\JJ)	.
!	!	!	!LO:SIC:s=(8dL	!	!	!	!	!	!	!	!	!	!	!	!	!	!	!	!	!	!	!	!	!	!	!	!	!	!	!	!	!	!	!
4D\	.	.	8d\L	.	(8f#/L	.	4ddd|\	.	4d\	-re	.	4d\	-re	.	4a\	-re	.	4ff#\	-re	.	4D\	.	4dd\	.	4ff#\	.	8f#\L	.	4dd\	.	8f#/L	.	4dd\	.
.	.	.	8f#\	.	8a/)	.	.	.	.	.	.	.	.	.	.	.	.	.	.	.	.	.	.	.	.	.	8a\	.	.	.	8a/	.	.	.
!	!	!	!	!	!	!	!	!	!	!	!	!LO:LB:g=original	!	!	!	!	!	!	!	!	!	!	!	!	!	!	!	!	!LO:N:vis=32	!	!	!	!	!
12AA\L	.	.	8d\	.	(8f#/	.	12aa\L	.	4A\	no-	.	4c#\	no-	.	4a\	no-	.	4ee\	no-	.	8AA/L	.	8a/L	.	8ee\L	.	8e\	.	(16aa\LL	.	8e/	.	(16aa\LL	.
!	!	!	!	!	!	!	!	!	!	!	!	!	!	!	!	!	!	!	!	!	!	!	!	!	!	!	!	!	!LO:N:vis=32	!	!	!	!	!
.	.	.	.	.	.	.	.	.	.	.	.	.	.	.	.	.	.	.	.	.	.	.	.	.	.	.	.	.	16gg\	.	.	.	16gg\	.
12BB\	.	.	.	.	.	.	12bb\	.	.	.	.	.	.	.	.	.	.	.	.	.	.	.	.	.	.	.	.	.	.	.	.	.	.	.
!	!	!	!LO:SIC:s=8f#J)	!	!	!	!	!	!	!	!	!	!	!	!	!	!	!	!	!	!	!	!	!	!	!	!	!	!LO:N:vis=32	!	!	!	!	!
.	.	.	8f#\J	.	8a/J)	.	.	.	.	.	.	.	.	.	.	.	.	.	.	.	8AA/J	.	8a/J	.	8ee\J	.	8g\J	.	16ff#\	.	8g/J	.	16ff#\	.
12C#\J	.	.	.	.	.	.	12ccc#\J	.	.	.	.	.	.	.	.	.	.	.	.	.	.	.	.	.	.	.	.	.	.	.	.	.	.	.
!	!	!	!	!	!	!	!	!	!	!	!	!	!	!	!	!	!	!	!	!	!	!	!	!	!	!	!	!	!LO:N:vis=32	!	!	!	!	!
.	.	.	.	.	.	.	.	.	.	.	.	.	.	.	.	.	.	.	.	.	.	.	.	.	.	.	.	.	16ee\JJ)	.	.	.	16ee\JJ)	.
!	!	!	!LO:LB:g=original	!	!	!	!	!	!	!	!	!	!	!	!	!	!	!LO:LB:g=original	!	!	!	!	!	!	!	!	!	!	!	!	!	!	!	!
=23	=23	=23	=23	=23	=23	=23	=23	=23	=23	=23	=23	=23	=23	=23	=23	=23	=23	=23	=23	=23	=23	=23	=23	=23	=23	=23	=23	=23	=23	=23	=23	=23	=23	=23
4D\	.	.	8d\L	.	(8f#/L	.	4ddd|\	.	4D\	.	.	4d\	.	.	1a	.	.	4ff#\	.	.	4D\	.	4dd\	.	4ff#\	.	8f#\L	.	4dd\	.	8f#/L	.	4dd\	.
.	.	.	8f#\	.	8a/)	.	.	.	.	.	.	.	.	.	.	.	.	.	.	.	.	.	.	.	.	.	8a\	.	.	.	8a/	.	.	.
!	!	!	!	!	!	!	!	!	!	!	!	!	!	!	!	!	!	!	!	!	!	!	!	!	!	!	!	!	!LO:N:vis=32	!	!	!	!	!
12AA\L	.	.	8c#\	.	8f#|/	.	12aa\L	.	4A\	.	.	4c#\	.	.	.	.	.	4ee\	.	.	8AA/L	.	8a/L	.	8ee\L	.	8e\	.	(16aa\LL	.	8e/	.	(16aa\LL	.
!	!	!	!	!	!	!	!	!	!	!	!	!	!	!	!	!	!	!	!	!	!	!	!	!	!	!	!	!	!LO:N:vis=32	!	!	!	!	!
.	.	.	.	.	.	.	.	.	.	.	.	.	.	.	.	.	.	.	.	.	.	.	.	.	.	.	.	.	16gg\	.	.	.	16gg\	.
12BB\	.	.	.	.	.	.	12bb\	.	.	.	.	.	.	.	.	.	.	.	.	.	.	.	.	.	.	.	.	.	.	.	.	.	.	.
!	!	!	!	!	!	!	!	!	!	!	!	!	!	!	!	!	!	!	!	!	!	!	!	!	!	!	!	!	!LO:N:vis=32	!	!	!	!	!
.	.	.	8e\J	.	8a|/J	.	.	.	.	.	.	.	.	.	.	.	.	.	.	.	8AA/J	.	8a/J	.	8ee\J	.	8g\J	.	16ff#\	.	8g/J	.	16ff#\	.
12C#\J	.	.	.	.	.	.	12ccc#\J	.	.	.	.	.	.	.	.	.	.	.	.	.	.	.	.	.	.	.	.	.	.	.	.	.	.	.
!	!	!	!	!	!	!	!	!	!	!	!	!	!	!	!	!	!	!	!	!	!	!	!	!	!	!	!	!	!LO:N:vis=32	!	!	!	!	!
.	.	.	.	.	.	.	.	.	.	.	.	.	.	.	.	.	.	.	.	.	.	.	.	.	.	.	.	.	16ee\JJ)	.	.	.	16ee\JJ)	.
4D\	.	.	8d\L	.	(8f#/L	.	4ddd|\	.	4d\	.	.	4d\	.	.	.	.	.	4ff#\	.	.	4D\	.	4dd\	.	4ff#\	.	8f#\L	.	4dd\	.	8f#/L	.	4dd\	.
.	.	.	8f#\	.	8a/)	.	.	.	.	.	.	.	.	.	.	.	.	.	.	.	.	.	.	.	.	.	8a\	.	.	.	8a/	.	.	.
!	!	!	!	!	!	!	!	!	!	!	!	!	!	!	!	!	!	!	!	!	!	!	!	!	!	!	!	!	!LO:N:vis=32	!	!	!	!	!
12AA\L	.	.	8c#\	.	8f#|/	.	12aa\L	.	4A\	.	.	4c#\	.	.	.	.	.	4ee\	.	.	8AA/L	.	8a/L	.	8ee\L	.	8e\	.	(16aa\LL	.	8e/	.	(16aa\LL	.
!	!	!	!	!	!	!	!	!	!	!	!	!	!	!	!	!	!	!	!	!	!	!	!	!	!	!	!	!	!LO:N:vis=32	!	!	!	!	!
.	.	.	.	.	.	.	.	.	.	.	.	.	.	.	.	.	.	.	.	.	.	.	.	.	.	.	.	.	16gg\	.	.	.	16gg\	.
12BB\	.	.	.	.	.	.	12bb\	.	.	.	.	.	.	.	.	.	.	.	.	.	.	.	.	.	.	.	.	.	.	.	.	.	.	.
!	!	!	!	!	!	!	!	!	!	!	!	!	!	!	!	!	!	!	!	!	!	!	!	!	!	!	!	!	!LO:N:vis=32	!	!	!	!	!
.	.	.	8e\J	.	8a|/J	.	.	.	.	.	.	.	.	.	.	.	.	.	.	.	8AA/J	.	8a/J	.	8ee\J	.	8g\J	.	16ff#\	.	8g/J	.	16ff#\	.
12C#\J	.	.	.	.	.	.	12ccc#\J	.	.	.	.	.	.	.	.	.	.	.	.	.	.	.	.	.	.	.	.	.	.	.	.	.	.	.
!	!	!	!	!	!	!	!	!	!	!	!	!	!	!	!	!	!	!	!	!	!	!	!	!	!	!	!	!	!LO:N:vis=32	!	!	!	!	!
.	.	.	.	.	.	.	.	.	.	.	.	.	.	.	.	.	.	.	.	.	.	.	.	.	.	.	.	.	16ee\JJ)	.	.	.	16ee\JJ)	.
!	!	!	!	!	!	!	!	!	!	!	!	!	!	!	!	!	!	!	!	!	!	!	!	!	!	!	!	!	!	!	!	!	!LO:LB:g=original	!
=24	=24	=24	=24	=24	=24	=24	=24	=24	=24	=24	=24	=24	=24	=24	=24	=24	=24	=24	=24	=24	=24	=24	=24	=24	=24	=24	=24	=24	=24	=24	=24	=24	=24	=24
4D\	.	.	4d\	.	4f#/	.	4ddd|\	.	4D\	-bis	.	4d\	-bis	.	4a\	-bis	.	4ff#\	-bis	.	4D\	.	4dd\	.	4ff#\	.	4f#/	.	4dd\	.	4f#/	.	4dd\	.
4D\	.	.	4d\ 4a	.	4d/ 4a 4ff#	.	4ddd|\	.	4r	.	.	4r	.	.	4r	.	.	4r	.	.	4D\	.	4dd\	.	4ff#\	.	4dd\	.	4ff#\	.	4dd\	.	4ff#\	.
4D\	.	.	4d\ 4a	.	4d/ 4a 4ff#	.	4ddd|\	.	2r	.	.	2r	.	.	2r	.	.	2r	.	.	4D\	.	4dd\	.	4ff#\	.	4dd\	.	4ff#\	.	4dd\	.	4ff#\	.
4r	.	.	4r	.	4r	.	4r	.	.	.	.	.	.	.	.	.	.	.	.	.	4r	.	4r	.	4r	.	4r	.	4r	.	4r	.	4r	.
!	!	!	!	!	!	!	!	!	!	!	!	!	!	!	!	!	!	!	!	!	!	!	!	!	!	!	!	!	!	!	!LO:LB:g=original	!	!	!
=25	=25	=25	=25	=25	=25	=25	=25	=25	=25	=25	=25	=25	=25	=25	=25	=25	=25	=25	=25	=25	=25	=25	=25	=25	=25	=25	=25	=25	=25	=25	=25	=25	=25	=25
*2\right	*	*	*	*	*	*	*	*	*	*	*	*	*	*	*	*	*	*	*	*	*	*	*	*	*	*	*2\right	*	*	*	*2\right	*	*	*
!	!	!	!LO:TX:a:t=5.:mod=	!	!LO:TX:a:t=5.:mod=	!	!LO:TX:a:t=5.:mod=	!	!LO:TX:t=P:problem:dopisek ołówkiem:Adagio	!	!	!LO:TX:t=P:problem:dopisek ołówkiem:Adagio	!	!LO:DY:a	!LO:TX:t=P:problem:dopisek ołówkiem:Adagio	!	!	!LO:TX:t=P:problem:dopisek ołówkiem:Adagio	!	!	!LO:TX:a:t=5:mod=	!	!LO:TX:a:t=5:mod=	!	!LO:TX:a:t=5:mod=	!	!	!	!	!	!	!	!	!
!	!	!LO:DY:b:t=piano.	!	!	!	!	!	!	!LO:TX:B:t=Adagio:color=grey:mod=	!	!LO:DY:b:t=piano	!LO:TX:B:t=Adagio:color=grey:mod=	!	!LO:DY:b:t=pia	!LO:TX:B:t=Adagio:color=grey:mod=	!	!LO:DY:b:t=pia	!LO:TX:B:t=Adagio:color=grey:mod=	!	!LO:DY:b:t=pia	!	!	!	!	!	!	!	!LO:DY:b:t=pia	!	!	!	!LO:DY:b:t=pia&colon;	!	!LO:DY:b::t=pp&colon;
!	!	!	!	!	!	!	!	!	!	!	!	!	!	!	!	!	!	!	!	!	!	!	!	!	!	!	!	!	!	!LO:MO:mod=p	!	!	!	!LO:MO:mod=p
2D\ 2d	.	p	00r	.	00r	.	00r	.	2d\	mi-	p	2d\	mi-	p	2a\	mi-	p	2ff#\	mi-	p	00r	.	00r	.	00r	.	2dd\	p	2ff#\	pp	2dd\	p	2ff#\	pp
2D\ 2d	.	.	.	.	.	.	.	.	2d\	-se-	.	2d\	-se-	.	2a\	-se-	.	2ff#\	-se-	.	.	.	.	.	.	.	2dd\	.	2ff#\	.	2dd\	.	2ff#\	.
=26	=26	=26	=26	=26	=26	=26	=26	=26	=26	=26	=26	=26	=26	=26	=26	=26	=26	=26	=26	=26	=26	=26	=26	=26	=26	=26	=26	=26	=26	=26	=26	=26	=26	=26
2C#\ 2c#	.	.	.	.	.	.	.	.	2c#\	-re-	.	2e\	-re-	.	2a\	-re-	.	2gg\	-re-	.	.	.	.	.	.	.	2cc#\	.	2gg\	.	2cc#\	.	2gg\	.
2D\ 2d	.	.	.	.	.	.	.	.	2d\	-re	.	2d\	-re	.	2a\	-re	.	2ff#\	-re	.	.	.	.	.	.	.	2dd\	.	2ff#\	.	2dd\	.	2ff#\	.
!	!	!	!	!	!	!	!	!	!	!	!	!	!	!	!	!	!	!	!	!	!	!	!	!	!	!	!	!	!LO:LB:g=original	!	!	!	!	!
=27	=27	=27	=27	=27	=27	=27	=27	=27	=27	=27	=27	=27	=27	=27	=27	=27	=27	=27	=27	=27	=27	=27	=27	=27	=27	=27	=27	=27	=27	=27	=27	=27	=27	=27
2GG/ 2G	.	.	.	.	.	.	.	.	2G\	no-	.	2d\	no-	.	2b\	no-	.	1ee	no-	.	.	.	.	.	.	.	2dd\	.	2ee\	.	2dd\	.	2ee\	.
!LO:SIC:v:s=2AA 2A	!	!	!	!	!	!	!	!	!	!	!	!	!	!	!	!	!	!	!	!	!	!	!	!	!	!	!	!	!	!	!	!	!	!
2GG/ 2G	.	.	.	.	.	.	.	.	2A\	.	.	2c#\	.	.	2a\	.	.	.	.	.	.	.	.	.	.	.	2cc#\	.	2aa\	.	2cc#\	.	2aa\	.
!	!	!	!	!	!	!	!	!	!LO:LB:g=original	!	!	!	!	!	!	!	!	!	!	!	!	!	!	!	!	!	!	!	!	!	!	!	!	!
=28	=28	=28	=28	=28	=28	=28	=28	=28	=28	=28	=28	=28	=28	=28	=28	=28	=28	=28	=28	=28	=28	=28	=28	=28	=28	=28	=28	=28	=28	=28	=28	=28	=28	=28
2D\ 2d	.	.	.	.	.	.	.	.	2D\	-bis	.	2d\	-bis	.	2a\	-bis	.	2ff#\	-bis	.	.	.	.	.	.	.	2dd\	.	2ff#\	.	2dd\	.	2ff#\	.
4r	.	.	.	.	.	.	.	.	4r	.	.	4r	.	.	4r	.	.	4r	.	.	.	.	.	.	.	.	4r	.	4r	.	4r	.	4r	.
!	!	!LO:MO:null:mod=!LO&colon;DY&colon;ed=brack	!	!	!	!	!	!	!	!	!	!	!	!	!	!	!	!	!	!	!	!	!	!	!	!	!	!LO:MO:null:mod=!LO&colon;DY&colon;ed=brack	!	!LO:MO:null:mod=!LO&colon;DY&colon;ed=brack	!	!LO:MO:null:mod=!LO&colon;DY&colon;ed=brack	!	!LO:MO:null:mod=!LO&colon;DY&colon;ed=brack
!	!	!	!	!	!	!	!	!	!	!	!	!	!	!	!	!	!	!	!	!	!	!	!	!	!	!	!	!	!	!	!	!	!	!
!	!	!LO:MO:null:mod=pp	!	!	!	!	!	!	!	!	!LO:DY:a	!	!	!LO:DY:a	!	!	!LO:DY:a	!	!	!LO:DY:a	!	!	!	!	!	!	!	!LO:MO:null:mod=pp	!	!LO:MO:null:mod=pp	!	!LO:MO:null:mod=pp	!	!LO:MO:null:mod=pp
4D\	.	.	.	.	.	.	.	.	4D\	no-	pp	4A\	no-	pp	4f#\	no-	pp	4dd\	no-	pp	.	.	.	.	.	.	4f#/	.	4dd\	.	4f#/	.	4dd\	.
=29	=29	=29	=29	=29	=29	=29	=29	=29	=29	=29	=29	=29	=29	=29	=29	=29	=29	=29	=29	=29	=29	=29	=29	=29	=29	=29	=29	=29	=29	=29	=29	=29	=29	=29
!	!	!	!LO:TX:b:t=il Fine	!	!LO:TX:b:t=ilFine	!	!LO:TX:b:t=Fine	!	!	!	!	!	!	!	!	!	!	!	!	!	!LO:TX:b:t=il Fine	!	!	!	!LO:TX:b:t=il Fine	!	!	!	!	!	!	!	!	!
2DD/ 2D	.	.	1r	.	1r	.	1r	.	2D\	-bis	.	2A\	-bis	.	2f#\	-bis	.	2dd\	-bis	.	1r	.	1r	.	1r	.	2f#/	.	2dd\	.	2f#/	.	2dd\	.
!	!	!	!	!	!	!	!	!	!LO:TX:b:t=il Fine:mod=	!	!	!LO:TX:b:t=il Fine:mod=	!	!	!LO:TX:b:t=il Fine:mod=	!	!	!LO:TX:b:t=il Fine:mod=	!	!	!	!	!	!	!	!	!LO:TX:b:t=il Fine:mod=	!	!LO:TX:b:t=Fine:mod=	!	!LO:TX:a:t=Fine:mod=	!	!LO:TX:b:t=Fine:mod=	!
2r	.	.	.	.	.	.	.	.	2r	.	.	2r	.	.	2r	.	.	2r	.	.	.	.	.	.	.	.	2r	.	2r	.	2r	.	2r	.
==	==	==	==	==	==	==	==	==	==	==	==	==	==	==	==	==	==	==	==	==	==	==	==	==	==	==	==	==	==	==	==	==	==	==
*-	*-	*-	*-	*-	*-	*-	*-	*-	*-	*-	*-	*-	*-	*-	*-	*-	*-	*-	*-	*-	*-	*-	*-	*-	*-	*-	*-	*-	*-	*-	*-	*-	*-	*-
!!!system-decoration: [(s1,s2,s3,s4)][(s5,s6)][(s7)][(s8,s9,s10,s11)][(s12,s13,s14)]s15
!!!RDF**kern: | = vertical stroke
!!!RDF**kern: > = above
!!!RDF**kern: < = below
!!!filter-modern: sic -sq | shed -e "s/TX(.*):t=P:/tx$1:t=P:/LG" | shed -e "s/^(X?)rep$/$1REP/I" | shed -k -e "s/LO:N:vis/LO:n:vis:/L" | shed -k -e "s/:TUP:/:tup:/L" | shed -e "s/^(\d+[\/\\]right)/$1yy/I;s/^(\d+[\/\\]left)/$1yy/I" | shed -e "s/:rj/:RJ/L" | shed -k -e "s/([^a-gA-Gn#X-])[<>]/$1/g" | shed -e "s/LO:DY:(a|b|rj)/LO:dy:$1/L" | shed -e "s/-//B" | modori -m | tie -s | autostem -r | humtr -p
!!!ENC: Krzysztof Stępień
!!!END: 2020-10-19
!!!EED: Natalia Wrzos
!!!EEV: 2022-06-28
!!!ENC-modern: Andrzej Borzym
!!!END-modern: 2022-08-30
